assets/Luts/CinematicGrade.cube
#Created by: Adobe Photoshop Export Color Lookup Plugin
#Copyright: (C) Copyright 2026 Tim Martin and Presetpro.com
TITLE "Presetpro - Cinematic Grade.jpg"
#LUT size
LUT_3D_SIZE 5
#data domain
#LUT data points
DOMAIN_MIN 0.000000 0.000000 0.000000
DOMAIN_MAX 0.903226 0.903226 0.903226
0.000000 0.018829 0.000000
0.113861 0.034515 0.006287
0.354645 0.011139 0.013977
0.604156 0.002136 0.005280
0.888153 0.002838 0.002838
0.004852 0.144531 0.033813
0.100616 0.167206 0.014984
0.384277 0.161652 0.000000
0.632385 0.165497 0.002441
0.905975 0.185120 0.002747
0.000000 0.367493 0.084412
0.045868 0.366486 0.084412
0.360931 0.415985 0.003448
0.694122 0.428223 0.002441
0.942902 0.409393 0.001404
0.002136 0.616699 0.206146
0.046570 0.618835 0.206848
0.320435 0.636230 0.191071
0.651337 0.686737 0.073486
0.963745 0.714264 0.002136
0.328888 0.863647 0.443665
0.404022 0.866486 0.444977
0.528534 0.866791 0.460754
0.702240 0.886719 0.439331
0.907288 0.907562 0.374054
0.000000 0.034515 0.131989
0.127838 0.041473 0.131989
0.370331 0.016388 0.135132
0.611145 0.077728 0.155670
0.886322 0.086121 0.154938
0.000000 0.166504 0.150085
0.155365 0.177307 0.152924
0.391602 0.186737 0.151520
0.633087 0.198578 0.151917
0.902008 0.214264 0.156769
0.105347 0.385315 0.220245
0.179749 0.388428 0.208405
0.389862 0.422638 0.174194
0.698975 0.419098 0.128113
0.944611 0.418823 0.120453
0.061096 0.628540 0.319611
0.182281 0.627136 0.320740
0.365479 0.639374 0.317200
0.665894 0.686737 0.255157
0.960602 0.711823 0.163269
0.371307 0.870026 0.520905
0.445404 0.866791 0.516357
0.557159 0.865784 0.533447
0.709808 0.884918 0.507233
0.907990 0.912537 0.472229
0.001740 0.059631 0.356354
0.181885 0.064880 0.361633
0.418823 0.089264 0.378021
0.648804 0.094818 0.365082
0.920929 0.031860 0.371735
0.000702 0.194427 0.376312
0.202423 0.207977 0.381866
0.431641 0.235199 0.404144
0.665894 0.235504 0.389893
0.927216 0.210510 0.381958
0.077820 0.414551 0.409393
0.231354 0.418823 0.415649
0.453613 0.439667 0.447021
0.693726 0.441772 0.434784
0.936615 0.451599 0.433594
0.282562 0.656494 0.522064
0.379242 0.659912 0.527618
0.481262 0.655640 0.517792
0.701416 0.694427 0.496552
0.959503 0.698578 0.455841
0.486664 0.874786 0.642670
0.537598 0.874481 0.632141
0.615234 0.875580 0.632965
0.740173 0.881775 0.632233
0.915558 0.910400 0.604431
0.021271 0.115173 0.647095
0.240173 0.123169 0.654053
0.484100 0.156952 0.666626
0.735931 0.196747 0.680450
0.933685 0.225067 0.660339
0.083923 0.245026 0.656494
0.252594 0.252014 0.657806
0.495239 0.283691 0.674927
0.745453 0.322449 0.685730
0.942474 0.346558 0.672272
0.002838 0.433380 0.661346
0.219513 0.439362 0.664795
0.499664 0.472839 0.682892
0.757904 0.517792 0.700989
0.943817 0.527924 0.689178
0.249054 0.680450 0.682495
0.361237 0.683594 0.686432
0.548584 0.686737 0.696167
0.767303 0.707703 0.713989
0.940277 0.702118 0.695831
0.536652 0.886719 0.760010
0.605225 0.885620 0.757477
0.697937 0.888031 0.767578
0.790375 0.888458 0.759613
0.925995 0.912842 0.751221
0.314423 0.240356 0.879364
0.429321 0.252594 0.884705
0.621826 0.285675 0.885315
0.833893 0.360382 0.889862
0.980347 0.427979 0.891907
0.329407 0.349670 0.883179
0.441864 0.361511 0.888031
0.632935 0.390167 0.884888
0.837036 0.456055 0.891907
0.976898 0.515625 0.892303
0.316437 0.512329 0.882172
0.437622 0.519623 0.886017
0.632935 0.544006 0.883606
0.832153 0.597748 0.891876
0.969513 0.641235 0.897064
0.317566 0.710541 0.883606
0.410797 0.705688 0.880463
0.566040 0.702118 0.881775
0.804535 0.737946 0.890778
0.958374 0.785706 0.906158
0.519867 0.904449 0.891907
0.585693 0.904144 0.892303
0.687195 0.905853 0.901306
0.812225 0.906952 0.899872
0.948669 0.917297 0.914154
