assets/Luts/CinematicGrade.cube
#Created by: Adobe Photoshop Export Color Lookup Plugin
#Copyright: (C) Copyright 2026 Tim Martin and Presetpro.com
TITLE "Presetpro - Cinematic Grade.jpg"
#LUT size
LUT_3D_SIZE 32
#data domain
DOMAIN_MIN 0.0 0.0 0.0
DOMAIN_MAX 1.0 1.0 1.0
#LUT data points
0.000000 0.018829 0.000000
0.006439 0.021973 0.000000
0.016235 0.019012 0.000000
0.035065 0.025085 0.003143
0.045837 0.022766 0.000427
0.074554 0.025604 0.006775
0.090729 0.028839 0.004333
0.113861 0.034515 0.006287
0.145813 0.033691 0.003967
0.179108 0.032684 0.012543
0.205475 0.031372 0.009430
0.242798 0.026215 0.005371
0.276794 0.024597 0.012543
0.313202 0.017517 0.013855
0.354645 0.011139 0.013977
0.391449 0.006287 0.011047
0.425049 0.001617 0.011047
0.461975 0.001740 0.009430
0.494934 0.001312 0.008118
0.533051 0.000000 0.010620
0.565826 0.001129 0.000000
0.604156 0.002136 0.005280
0.642487 0.000000 0.000916
0.680817 0.000793 0.002319
0.719147 0.000702 0.000000
0.765686 0.000000 0.002533
0.804230 0.000000 0.002625
0.849823 0.002747 0.003143
0.888153 0.002838 0.002838
0.932953 0.002930 0.003143
0.971100 0.030762 0.000092
1.000000 0.069031 0.000000
0.000000 0.034882 0.000092
0.006439 0.034790 0.000092
0.019379 0.035095 0.003021
0.032318 0.037811 0.000092
0.051422 0.038330 0.000092
0.068695 0.040985 0.003632
0.096313 0.041565 0.003723
0.125519 0.043488 0.011841
0.148865 0.043488 0.006989
0.174744 0.043396 0.011536
0.212036 0.044189 0.008484
0.244904 0.041077 0.010529
0.278198 0.033661 0.004547
0.314575 0.031464 0.011841
0.358185 0.025360 0.011139
0.396027 0.020844 0.010803
0.428192 0.014526 0.007874
0.463196 0.015961 0.004852
0.498199 0.011108 0.011230
0.530823 0.009796 0.004333
0.567963 0.006653 0.006165
0.604156 0.007660 0.000000
0.643311 0.006561 0.000000
0.680908 0.007355 0.002319
0.722168 0.008759 0.000000
0.765778 0.006561 0.000000
0.807861 0.006439 0.002625
0.849823 0.009186 0.000092
0.888275 0.009613 0.000092
0.929810 0.028015 0.003021
0.971100 0.053314 0.000092
1.000000 0.084991 0.003021
0.000000 0.050537 0.006287
0.006439 0.047607 0.003357
0.016235 0.048004 0.000427
0.034637 0.053711 0.006073
0.051514 0.051147 0.000183
0.074432 0.054077 0.003357
0.094666 0.054688 0.004333
0.121857 0.056824 0.004852
0.149963 0.056213 0.003723
0.183563 0.052368 0.003357
0.215393 0.054291 0.007507
0.251282 0.052765 0.010529
0.284668 0.046814 0.010223
0.322601 0.042664 0.009216
0.359894 0.040314 0.007599
0.397858 0.038422 0.010712
0.426880 0.032043 0.003448
0.466553 0.030396 0.009216
0.500305 0.028992 0.004456
0.535400 0.024536 0.007996
0.571198 0.022614 0.005371
0.605377 0.027771 0.000000
0.648560 0.026764 0.004059
0.681030 0.020782 0.000427
0.722504 0.017334 0.000000
0.766266 0.015137 0.000000
0.807770 0.019073 0.000000
0.852753 0.019775 0.000000
0.888550 0.032227 0.000000
0.930023 0.050537 0.000000
0.968262 0.072815 0.000000
0.999817 0.100952 0.009003
0.000000 0.057892 0.006897
0.009277 0.063568 0.012543
0.015747 0.066711 0.007172
0.025024 0.069550 0.010010
0.050995 0.070343 0.003448
0.074066 0.067810 0.003632
0.097015 0.070770 0.003723
0.126404 0.069458 0.003540
0.156158 0.070343 0.009094
0.190033 0.067627 0.001221
0.219147 0.070160 0.011047
0.255646 0.067810 0.009705
0.287415 0.066101 0.010437
0.332825 0.062866 0.012543
0.365784 0.062775 0.011749
0.401154 0.060455 0.006561
0.434174 0.054474 0.002930
0.471069 0.053375 0.004242
0.499298 0.055786 0.003540
0.539124 0.054169 0.002838
0.573212 0.051331 0.000305
0.610138 0.053467 0.001831
0.648773 0.050018 0.001923
0.688812 0.047577 0.000793
0.726044 0.048401 0.000000
0.766876 0.048187 0.000000
0.809174 0.051147 0.000000
0.850739 0.054565 0.000610
0.892181 0.058502 0.000305
0.935669 0.079254 0.000000
0.971100 0.097992 0.000000
1.000000 0.117218 0.003448
0.000427 0.077209 0.016510
0.009613 0.079956 0.019226
0.013306 0.079956 0.016510
0.022797 0.080261 0.018738
0.036835 0.088959 0.012543
0.068787 0.098358 0.009308
0.097595 0.092896 0.000610
0.132294 0.090271 0.006989
0.159973 0.089783 0.006683
0.194794 0.086731 0.009003
0.229370 0.086609 0.011536
0.261627 0.083496 0.004944
0.301880 0.083496 0.011322
0.333313 0.082184 0.005371
0.367584 0.081757 0.007690
0.400879 0.083496 0.004761
0.441864 0.080750 0.007385
0.475555 0.079041 0.003143
0.506866 0.080261 0.001312
0.544403 0.080353 0.001526
0.584259 0.075592 0.004333
0.617706 0.078033 0.004547
0.651886 0.079437 0.000427
0.690247 0.081146 0.001617
0.731293 0.077606 0.002014
0.773560 0.080139 0.004852
0.811401 0.083496 0.000000
0.853760 0.086609 0.005066
0.896942 0.093414 0.000427
0.935913 0.102509 0.000000
0.974121 0.120819 0.000000
0.991791 0.143097 0.002747
0.000519 0.096008 0.024597
0.006866 0.096008 0.024597
0.013428 0.099152 0.019836
0.019867 0.099152 0.019836
0.026611 0.106232 0.016174
0.052094 0.112213 0.014679
0.096588 0.121002 0.011932
0.127441 0.122131 0.002930
0.165466 0.120514 0.006165
0.200653 0.114441 0.005371
0.238464 0.108551 0.001526
0.272125 0.108459 0.003723
0.309143 0.108551 0.006287
0.341125 0.107758 0.008118
0.375702 0.103302 0.008484
0.410278 0.106934 0.006287
0.445801 0.105316 0.007263
0.478363 0.105438 0.004547
0.513763 0.107758 0.003143
0.548248 0.110291 0.001221
0.584045 0.107544 0.000000
0.618225 0.105927 0.001007
0.656952 0.107849 0.000000
0.693878 0.108551 0.000519
0.731689 0.112000 0.002625
0.773071 0.111603 0.000519
0.817261 0.116974 0.004761
0.854889 0.115845 0.000427
0.894928 0.124969 0.005463
0.940430 0.134766 0.003143
0.971710 0.149536 0.000092
1.000000 0.168182 0.000000
0.003143 0.118958 0.029449
0.009003 0.118439 0.028839
0.012909 0.121887 0.028015
0.019348 0.122101 0.023163
0.031067 0.125641 0.026306
0.035797 0.131500 0.019104
0.073242 0.137787 0.012543
0.122955 0.144165 0.008209
0.169189 0.153870 0.006470
0.206635 0.144958 0.002533
0.243225 0.144653 0.005066
0.277405 0.134766 0.004059
0.315033 0.134644 0.008820
0.348816 0.131500 0.002441
0.381866 0.133240 0.002533
0.417755 0.132111 0.002228
0.451080 0.134644 0.000000
0.483948 0.130981 0.002014
0.516785 0.134033 0.000000
0.553802 0.134644 0.000000
0.590912 0.135742 0.000000
0.627136 0.137787 0.005066
0.661621 0.138397 0.002533
0.700256 0.136871 0.004242
0.736755 0.140320 0.000000
0.783295 0.139618 0.005676
0.820312 0.144165 0.001617
0.856720 0.149536 0.000000
0.900696 0.152557 0.004059
0.939209 0.162079 0.002930
0.977264 0.178253 0.000000
0.999390 0.188599 0.000000
0.004852 0.144531 0.033813
0.006439 0.146973 0.033813
0.012909 0.144531 0.031372
0.022491 0.142822 0.032074
0.026215 0.150909 0.029633
0.032257 0.159332 0.031067
0.049652 0.160919 0.020660
0.100616 0.167206 0.014984
0.158661 0.177521 0.002136
0.206116 0.179749 0.000000
0.245667 0.180878 0.003143
0.281555 0.173767 0.000000
0.321198 0.168427 0.002441
0.359528 0.165894 0.000000
0.384277 0.161652 0.000000
0.422638 0.160004 0.004059
0.456421 0.164886 0.004669
0.493774 0.160919 0.000702
0.527008 0.162628 0.000702
0.564423 0.163361 0.000000
0.595490 0.162750 0.000000
0.632385 0.165497 0.002441
0.667694 0.164062 0.000702
0.705811 0.166504 0.000000
0.742523 0.169617 0.002441
0.784698 0.168518 0.001312
0.824249 0.172974 0.000000
0.864594 0.176910 0.002014
0.905975 0.185120 0.002747
0.945312 0.192596 0.000183
0.981201 0.202209 0.003021
1.000000 0.217407 0.000000
0.005463 0.174042 0.037659
0.006561 0.172546 0.038544
0.013702 0.170929 0.036926
0.020172 0.174042 0.037659
0.025818 0.176392 0.037659
0.032257 0.180023 0.032776
0.041016 0.186584 0.025513
0.078247 0.193573 0.023499
0.133270 0.199982 0.014862
0.191010 0.207855 0.000092
0.252838 0.217163 0.000000
0.292694 0.214050 0.003143
0.324249 0.211700 0.000427
0.361359 0.205231 0.000000
0.397339 0.197632 0.000793
0.432251 0.194397 0.000000
0.463501 0.189758 0.000793
0.500946 0.189758 0.002533
0.531769 0.195007 0.001312
0.566772 0.194794 0.000793
0.599640 0.195221 0.000000
0.638672 0.194214 0.002136
0.676178 0.196838 0.002838
0.713715 0.196838 0.003143
0.753662 0.196930 0.001617
0.795135 0.200867 0.000000
0.828796 0.203094 0.001831
0.869446 0.205017 0.006989
0.911438 0.213715 0.004852
0.946533 0.223053 0.002319
0.985046 0.234192 0.002319
1.000000 0.243103 0.001617
0.000000 0.203796 0.044830
0.006439 0.203796 0.044830
0.012909 0.203583 0.044617
0.020264 0.201965 0.043915
0.029053 0.205505 0.047058
0.034485 0.206024 0.041595
0.041534 0.215118 0.033173
0.060944 0.219452 0.024872
0.121765 0.231018 0.021973
0.167053 0.235565 0.010742
0.231995 0.241547 0.002228
0.293610 0.251953 0.002930
0.333252 0.250549 0.000305
0.367401 0.248199 0.001831
0.401215 0.239227 0.000519
0.437500 0.236664 0.000000
0.476898 0.227264 0.000916
0.506897 0.225647 0.000916
0.543427 0.226654 0.000916
0.574463 0.223602 0.001923
0.608643 0.224823 0.001129
0.644653 0.224823 0.000000
0.681061 0.227051 0.002228
0.716339 0.231110 0.000000
0.759338 0.231720 0.002228
0.801392 0.231720 0.000000
0.839233 0.232025 0.000000
0.876221 0.237885 0.003632
0.915070 0.243378 0.003143
0.954926 0.249725 0.000183
0.981720 0.264404 0.000000
0.997772 0.275024 0.004059
0.000000 0.236938 0.047058
0.006439 0.235962 0.049072
0.012909 0.236145 0.048676
0.022491 0.235840 0.048065
0.027924 0.232697 0.051331
0.033264 0.237976 0.047546
0.039703 0.246368 0.048065
0.051422 0.246765 0.038269
0.102509 0.254272 0.027924
0.159637 0.259827 0.022064
0.217010 0.267212 0.005157
0.270538 0.275909 0.000000
0.334351 0.291290 0.000000
0.371460 0.291199 0.000000
0.408997 0.282104 0.002136
0.446320 0.276611 0.002014
0.481934 0.271362 0.003021
0.515991 0.264771 0.000000
0.550079 0.260437 0.002136
0.586212 0.255676 0.001007
0.615021 0.259033 0.000000
0.653229 0.255768 0.004242
0.691681 0.260254 0.001007
0.729919 0.259918 0.000000
0.766937 0.262054 0.000000
0.805145 0.265198 0.000000
0.845490 0.266724 0.001617
0.885742 0.267609 0.003845
0.921356 0.277130 0.000000
0.954224 0.282898 0.001923
0.985870 0.293121 0.002228
0.997864 0.303833 0.000000
0.000000 0.267883 0.058685
0.006439 0.267792 0.058594
0.012909 0.266785 0.057587
0.019348 0.267090 0.057892
0.029846 0.267181 0.055969
0.033478 0.265259 0.055756
0.040741 0.271149 0.057465
0.047882 0.274872 0.046570
0.086609 0.284088 0.039246
0.141754 0.291656 0.030853
0.199005 0.295013 0.013977
0.255341 0.303314 0.002014
0.309265 0.312012 0.000000
0.368958 0.327698 0.001831
0.410004 0.333160 0.000000
0.448334 0.322327 0.001617
0.484772 0.320221 0.001129
0.522095 0.311188 0.000000
0.557892 0.306549 0.003357
0.591736 0.297241 0.000000
0.624512 0.292999 0.002014
0.659637 0.291901 0.001038
0.698944 0.292786 0.000916
0.736389 0.291992 0.000000
0.775818 0.293213 0.002228
0.816162 0.295319 0.000000
0.852875 0.298157 0.002228
0.886963 0.300903 0.000000
0.924896 0.307281 0.000000
0.964111 0.315674 0.000000
0.991241 0.325073 0.003021
1.000000 0.334686 0.000000
0.000000 0.300659 0.062744
0.006439 0.301788 0.064056
0.014832 0.298920 0.065369
0.021271 0.297729 0.069305
0.025818 0.301086 0.071045
0.036224 0.296600 0.069031
0.043671 0.298035 0.068420
0.045166 0.306427 0.055237
0.086212 0.313293 0.057281
0.136688 0.322205 0.040375
0.187469 0.330017 0.030365
0.240173 0.330200 0.012543
0.290527 0.338806 0.000000
0.341827 0.348511 0.000183
0.405640 0.366547 0.006989
0.456635 0.367126 0.000000
0.489349 0.365814 0.000000
0.524414 0.359924 0.003143
0.560608 0.352661 0.004456
0.600159 0.346283 0.000000
0.636078 0.337982 0.003967
0.672241 0.332550 0.002228
0.709686 0.326263 0.001038
0.748230 0.323822 0.000000
0.782410 0.325745 0.000000
0.822632 0.326355 0.001312
0.858551 0.331512 0.002930
0.897278 0.335999 0.000000
0.932068 0.340424 0.000000
0.966949 0.348541 0.000000
0.989014 0.355103 0.001831
0.998779 0.368958 0.001923
0.000000 0.330688 0.068512
0.007782 0.332001 0.073456
0.014221 0.332001 0.073456
0.020660 0.333832 0.073456
0.028961 0.332001 0.078033
0.033569 0.330688 0.079742
0.040527 0.333832 0.081573
0.047882 0.333221 0.071747
0.085999 0.342743 0.071655
0.136993 0.350922 0.056763
0.185150 0.357819 0.046661
0.225098 0.362579 0.031555
0.273529 0.369537 0.006470
0.327545 0.379059 0.003143
0.378723 0.384125 0.001312
0.442474 0.404755 0.000000
0.498749 0.409821 0.000000
0.533905 0.406464 0.001404
0.571045 0.397369 0.002625
0.605927 0.392822 0.001312
0.643158 0.386139 0.004242
0.681061 0.380066 0.000000
0.724884 0.373169 0.004059
0.755585 0.362885 0.001038
0.794037 0.361969 0.004028
0.830933 0.360138 0.000000
0.867950 0.366516 0.000000
0.902039 0.366608 0.000000
0.939362 0.371185 0.000000
0.975067 0.377533 0.001312
0.993439 0.390106 0.003632
0.997375 0.397888 0.000000
0.000000 0.367493 0.084412
0.006561 0.365692 0.082672
0.016052 0.364380 0.086121
0.021881 0.363770 0.085510
0.026794 0.366791 0.083679
0.035706 0.364044 0.087524
0.040436 0.366394 0.088135
0.045868 0.366486 0.084412
0.086121 0.372864 0.075592
0.133026 0.379547 0.072968
0.179688 0.385620 0.061432
0.221130 0.391968 0.050812
0.270203 0.401306 0.031067
0.314697 0.407867 0.009491
0.360931 0.415985 0.003448
0.413727 0.425690 0.001404
0.481049 0.438232 0.000000
0.540100 0.451599 0.002838
0.575287 0.446625 0.003845
0.611694 0.440765 0.005768
0.651947 0.432159 0.000000
0.694122 0.428223 0.002441
0.726898 0.421143 0.000000
0.762085 0.416473 0.000916
0.802124 0.403809 0.002136
0.841278 0.398865 0.000000
0.875244 0.398071 0.002441
0.914001 0.403015 0.007690
0.942902 0.409393 0.001404
0.977081 0.414154 0.000000
0.993561 0.420654 0.001404
0.996857 0.428223 0.001740
0.000000 0.400879 0.092499
0.006439 0.399353 0.094025
0.012909 0.399353 0.094025
0.019348 0.399353 0.094025
0.026215 0.398438 0.101379
0.033264 0.398743 0.098785
0.043182 0.398651 0.098785
0.051208 0.395172 0.098083
0.088654 0.404114 0.096252
0.133972 0.408661 0.089661
0.176849 0.414825 0.081482
0.215668 0.419708 0.066986
0.255707 0.428711 0.055450
0.301727 0.438324 0.033997
0.346649 0.443054 0.008209
0.399231 0.452576 0.000000
0.452118 0.465240 0.001526
0.516357 0.479919 0.000000
0.582184 0.493073 0.001312
0.623138 0.485168 0.006042
0.658325 0.482941 0.001526
0.698792 0.475861 0.001526
0.739044 0.468353 0.001526
0.774109 0.462006 0.000793
0.809204 0.457245 0.001526
0.848755 0.450958 0.001038
0.882935 0.445099 0.000000
0.917633 0.441559 0.001221
0.952606 0.440033 0.000000
0.977081 0.445892 0.000000
0.991943 0.454102 0.000092
0.995239 0.465118 0.000000
0.001617 0.432831 0.108307
0.007965 0.432831 0.105255
0.012909 0.431427 0.106873
0.022186 0.435699 0.111145
0.028839 0.429810 0.114563
0.037537 0.432343 0.113678
0.038696 0.433868 0.110931
0.054962 0.432159 0.115387
0.098877 0.430511 0.117004
0.135284 0.438416 0.102631
0.174316 0.446014 0.096558
0.213531 0.453308 0.089569
0.246918 0.460266 0.075928
0.290894 0.468689 0.059418
0.340057 0.476562 0.037170
0.381958 0.479919 0.010071
0.434387 0.492462 0.000000
0.493347 0.500580 0.001404
0.554657 0.513519 0.000000
0.624756 0.534576 0.003235
0.669586 0.528168 0.001617
0.706665 0.522308 0.003754
0.743896 0.514832 0.001526
0.786804 0.511383 0.003235
0.821045 0.505005 0.001617
0.854736 0.497925 0.000000
0.886780 0.491547 0.000000
0.920746 0.490051 0.001129
0.954742 0.483154 0.001221
0.983154 0.486084 0.001312
0.993439 0.487701 0.004547
0.996979 0.497131 0.000000
0.000000 0.469666 0.120941
0.006439 0.468262 0.119537
0.012909 0.466553 0.118408
0.019348 0.467651 0.124084
0.025818 0.465210 0.121643
0.035095 0.467957 0.125793
0.042145 0.464813 0.127228
0.055969 0.463379 0.126526
0.103210 0.466553 0.130341
0.141052 0.469452 0.121155
0.172791 0.476227 0.121246
0.212555 0.481598 0.114685
0.240326 0.490601 0.099426
0.286163 0.497925 0.085754
0.333496 0.506989 0.076233
0.374359 0.510132 0.048401
0.420105 0.521484 0.011658
0.475952 0.531006 0.003143
0.533600 0.537598 0.002930
0.590759 0.549927 0.001404
0.672211 0.569458 0.000000
0.712555 0.569672 0.000000
0.754913 0.562378 0.000000
0.792328 0.560364 0.001740
0.826843 0.552979 0.002136
0.859589 0.545898 0.000000
0.893066 0.542633 0.002625
0.923798 0.540405 0.001740
0.956390 0.534149 0.000305
0.978699 0.531494 0.000000
0.993439 0.529175 0.000000
0.996857 0.529297 0.003448
0.000000 0.501221 0.138031
0.009613 0.500397 0.138550
0.013092 0.500092 0.136932
0.019348 0.504547 0.139557
0.027649 0.501740 0.139343
0.032257 0.503571 0.142181
0.039307 0.503052 0.142273
0.053040 0.498199 0.141693
0.103516 0.502014 0.150574
0.139740 0.503052 0.140900
0.176239 0.510315 0.138580
0.207672 0.514862 0.130768
0.245392 0.521149 0.124786
0.284943 0.529449 0.113159
0.323792 0.535828 0.101318
0.367249 0.544006 0.085510
0.411224 0.553528 0.060944
0.461456 0.564270 0.022980
0.517914 0.570740 0.000000
0.574249 0.577301 0.000183
0.637177 0.586823 0.002930
0.707275 0.606171 0.000000
0.761292 0.608917 0.000000
0.800018 0.602936 0.000519
0.828339 0.597687 0.000000
0.864746 0.595856 0.000000
0.897736 0.590088 0.000000
0.928650 0.586426 0.000000
0.959076 0.580658 0.000000
0.981323 0.578857 0.001831
0.992218 0.576935 0.001831
0.994232 0.578857 0.000000
0.001923 0.538147 0.156372
0.008392 0.538147 0.156372
0.014832 0.538147 0.160217
0.021271 0.538147 0.162659
0.028534 0.537323 0.162659
0.036316 0.538849 0.161194
0.038696 0.540070 0.162659
0.048981 0.538849 0.160919
0.100494 0.536926 0.165771
0.141327 0.538147 0.162933
0.178070 0.542297 0.163635
0.211426 0.548645 0.153931
0.239624 0.554321 0.144531
0.281189 0.563904 0.141388
0.321350 0.569000 0.127747
0.361389 0.578491 0.115997
0.406830 0.588013 0.096741
0.455322 0.593201 0.076416
0.509705 0.600891 0.051025
0.558167 0.609070 0.001221
0.618561 0.616547 0.000000
0.677338 0.624146 0.000000
0.750275 0.643494 0.003632
0.803894 0.649841 0.000000
0.838562 0.644287 0.000000
0.871735 0.640442 0.001221
0.899139 0.633484 0.001007
0.931793 0.629822 0.003845
0.957764 0.628204 0.000610
0.984253 0.626678 0.000000
0.993561 0.623535 0.001221
0.995667 0.624756 0.000000
0.000000 0.577271 0.177521
0.007568 0.578369 0.178650
0.012909 0.577271 0.181580
0.019348 0.578369 0.181580
0.027313 0.577850 0.175903
0.032776 0.577484 0.181152
0.039307 0.573822 0.186432
0.048004 0.574646 0.181763
0.093811 0.575256 0.179138
0.141052 0.574127 0.191895
0.176331 0.576263 0.191284
0.208282 0.583740 0.179535
0.244812 0.588989 0.178314
0.281830 0.595581 0.169922
0.319214 0.602875 0.154449
0.360504 0.611267 0.144623
0.399261 0.616730 0.135620
0.449127 0.627960 0.118713
0.498901 0.631500 0.098572
0.552582 0.640930 0.071045
0.605682 0.646301 0.027649
0.659912 0.654785 0.001007
0.723053 0.657440 0.004059
0.786377 0.673615 0.000000
0.841522 0.684326 0.003143
0.874573 0.681915 0.000000
0.899841 0.678772 0.000000
0.934235 0.676361 0.000000
0.960510 0.673309 0.000000
0.986694 0.668457 0.004059
0.993561 0.667145 0.001129
0.993927 0.671387 0.000000
0.002136 0.616699 0.206146
0.006439 0.614594 0.204010
0.013916 0.613556 0.204010
0.022491 0.615723 0.206146
0.025818 0.614594 0.207458
0.033264 0.615601 0.205017
0.039703 0.614166 0.207062
0.046570 0.618835 0.206848
0.099487 0.613373 0.214264
0.142151 0.614502 0.212433
0.182495 0.618835 0.212433
0.215668 0.618835 0.210297
0.249451 0.623169 0.203033
0.285461 0.631378 0.195953
0.320435 0.636230 0.191071
0.360077 0.645844 0.180145
0.399963 0.652344 0.173035
0.446899 0.656769 0.153625
0.496246 0.661621 0.146423
0.546112 0.670654 0.126312
0.594086 0.676208 0.101929
0.651337 0.686737 0.073486
0.702301 0.690887 0.018860
0.755920 0.696350 0.002136
0.820038 0.709595 0.000000
0.873962 0.728638 0.002533
0.905609 0.722382 0.001007
0.934753 0.718842 0.000427
0.963745 0.714264 0.002136
0.984558 0.713135 0.002136
0.993561 0.709930 0.003143
0.997864 0.712952 0.000000
0.000000 0.652802 0.230743
0.006561 0.652924 0.230865
0.012909 0.651886 0.229828
0.019348 0.652802 0.230743
0.031281 0.652802 0.234406
0.036713 0.650574 0.232574
0.044067 0.651489 0.237946
0.057800 0.651794 0.239960
0.117981 0.652313 0.239258
0.155823 0.652802 0.240631
0.196045 0.651886 0.243988
0.226410 0.650787 0.243073
0.262390 0.659088 0.239868
0.293060 0.662628 0.234283
0.330353 0.669098 0.226105
0.363037 0.677002 0.212646
0.405945 0.682648 0.210388
0.451660 0.689026 0.200073
0.495453 0.693604 0.184998
0.542297 0.700897 0.172180
0.592957 0.710205 0.151184
0.641724 0.714539 0.139587
0.694916 0.720001 0.113770
0.745911 0.727295 0.078674
0.794861 0.728516 0.026733
0.847656 0.746613 0.000305
0.906525 0.758179 0.003632
0.940186 0.755920 0.000427
0.963135 0.755432 0.000000
0.981323 0.750275 0.001404
0.993561 0.749176 0.000183
0.996857 0.752289 0.000000
0.000000 0.693359 0.261108
0.006439 0.693481 0.261200
0.013702 0.694672 0.263214
0.019653 0.693787 0.262604
0.026611 0.692963 0.261414
0.032257 0.692871 0.263428
0.049438 0.687897 0.263824
0.101624 0.691833 0.265778
0.145020 0.691040 0.270508
0.179108 0.691040 0.272644
0.214905 0.687897 0.273346
0.245850 0.691467 0.270905
0.278290 0.692566 0.272736
0.307098 0.695770 0.265533
0.340485 0.701050 0.257477
0.375763 0.711365 0.250061
0.410980 0.713928 0.244598
0.458954 0.721008 0.239868
0.501434 0.726562 0.226196
0.541687 0.735657 0.213654
0.589813 0.737793 0.204529
0.637451 0.744171 0.191681
0.689453 0.749725 0.168823
0.738098 0.753784 0.152008
0.786652 0.756317 0.129547
0.832367 0.765930 0.091003
0.884552 0.776672 0.029266
0.930695 0.794159 0.000000
0.963562 0.789124 0.000000
0.983765 0.790833 0.000000
0.993561 0.785156 0.003143
0.994537 0.788300 0.000000
0.000000 0.727875 0.290649
0.006439 0.729279 0.291351
0.012909 0.728577 0.290649
0.019348 0.729279 0.291351
0.037140 0.728577 0.292145
0.074890 0.729980 0.293274
0.113525 0.727875 0.296539
0.153564 0.730988 0.303192
0.180023 0.730194 0.303192
0.218964 0.727631 0.304596
0.245972 0.724701 0.304626
0.275787 0.727875 0.306946
0.300262 0.728058 0.300781
0.332825 0.733734 0.301483
0.357391 0.736542 0.300385
0.393982 0.743347 0.295532
0.429810 0.747406 0.286713
0.471405 0.754669 0.279510
0.509003 0.758118 0.274872
0.551697 0.762543 0.260284
0.597015 0.768036 0.250671
0.640106 0.773895 0.239655
0.685486 0.777832 0.224457
0.734863 0.784912 0.213928
0.773193 0.787445 0.186432
0.817993 0.791412 0.164368
0.859863 0.795349 0.145630
0.907715 0.802734 0.118225
0.955048 0.821381 0.063477
0.984070 0.826508 0.038879
0.993561 0.822876 0.051025
0.997559 0.823395 0.053162
0.070862 0.766876 0.328278
0.080536 0.766876 0.328400
0.101562 0.763153 0.331635
0.117218 0.763763 0.335785
0.138855 0.764160 0.333038
0.163330 0.766479 0.332672
0.186981 0.761841 0.333984
0.211945 0.764374 0.335876
0.231140 0.763763 0.335968
0.262390 0.766876 0.339233
0.286652 0.763763 0.343048
0.314758 0.763245 0.343170
0.339752 0.763153 0.344696
0.367828 0.764374 0.342072
0.394135 0.769531 0.338318
0.421844 0.774384 0.335602
0.456421 0.779144 0.328888
0.492554 0.782379 0.322632
0.527527 0.791260 0.313934
0.565857 0.793915 0.301300
0.602875 0.800903 0.297241
0.647095 0.799866 0.294800
0.688934 0.805145 0.279022
0.733337 0.811218 0.267487
0.769531 0.814667 0.255157
0.816467 0.817688 0.239258
0.855713 0.821045 0.214447
0.892822 0.824585 0.192383
0.936737 0.833984 0.173767
0.974976 0.847748 0.138062
0.990295 0.853516 0.130676
0.996857 0.857880 0.140808
0.171753 0.799469 0.364532
0.178925 0.799469 0.364624
0.192352 0.799469 0.367676
0.204468 0.799225 0.367950
0.217896 0.798950 0.365540
0.227875 0.799469 0.365540
0.252777 0.800873 0.372345
0.275299 0.797516 0.370300
0.291077 0.801270 0.376068
0.315216 0.799469 0.374329
0.339600 0.798950 0.378693
0.360901 0.799469 0.375977
0.384949 0.799469 0.382141
0.407410 0.798950 0.380219
0.433716 0.802063 0.381134
0.461090 0.802185 0.376160
0.489441 0.812012 0.369293
0.517944 0.812500 0.364410
0.553040 0.820099 0.359894
0.583862 0.824036 0.354614
0.622528 0.826569 0.347321
0.660645 0.830841 0.334167
0.694916 0.836090 0.328522
0.736572 0.839935 0.324036
0.769867 0.838806 0.305023
0.810699 0.848846 0.295715
0.849152 0.847015 0.279327
0.887482 0.856018 0.264740
0.919830 0.859467 0.247131
0.953278 0.866455 0.220825
0.993256 0.878296 0.206573
1.000000 0.884674 0.193085
0.254730 0.831818 0.401886
0.265137 0.834534 0.404999
0.271576 0.834534 0.404999
0.278046 0.834534 0.404999
0.296204 0.834534 0.399933
0.307526 0.832306 0.406311
0.323090 0.833008 0.411682
0.343536 0.833832 0.412292
0.362122 0.833740 0.412109
0.374939 0.832306 0.413391
0.390594 0.834534 0.416229
0.416168 0.835754 0.423004
0.433441 0.831818 0.417969
0.455170 0.833527 0.423737
0.479034 0.834534 0.425568
