assets/Luts/CinematicGrade.cube
#Created by: Adobe Photoshop Export Color Lookup Plugin
#Copyright: (C) Copyright 2026 Tim Martin and Presetpro.com
TITLE "Presetpro - Cinematic Grade.jpg"
#LUT size
LUT_3D_SIZE 8
#data domain
#LUT data points
DOMAIN_MIN 0.000000 0.000000 0.000000
DOMAIN_MAX 0.903226 0.903226 0.903226
0.000000 0.018829 0.000000
0.045837 0.022766 0.000427
0.145813 0.033691 0.003967
0.276794 0.024597 0.012543
0.425049 0.001617 0.011047
0.565826 0.001129 0.000000
0.719147 0.000702 0.000000
0.888153 0.002838 0.002838
0.000427 0.077209 0.016510
0.036835 0.088959 0.012543
0.159973 0.089783 0.006683
0.301880 0.083496 0.011322
0.441864 0.080750 0.007385
0.584259 0.075592 0.004333
0.731293 0.077606 0.002014
0.896942 0.093414 0.000427
0.005463 0.174042 0.037659
0.025818 0.176392 0.037659
0.133270 0.199982 0.014862
0.324249 0.211700 0.000427
0.463501 0.189758 0.000793
0.599640 0.195221 0.000000
0.753662 0.196930 0.001617
0.911438 0.213715 0.004852
0.000000 0.300659 0.062744
0.025818 0.301086 0.071045
0.086212 0.313293 0.057281
0.290527 0.338806 0.000000
0.489349 0.365814 0.000000
0.636078 0.337982 0.003967
0.782410 0.325745 0.000000
0.932068 0.340424 0.000000
0.001617 0.432831 0.108307
0.028839 0.429810 0.114563
0.098877 0.430511 0.117004
0.246918 0.460266 0.075928
0.434387 0.492462 0.000000
0.669586 0.528168 0.001617
0.821045 0.505005 0.001617
0.954742 0.483154 0.001221
0.000000 0.577271 0.177521
0.027313 0.577850 0.175903
0.093811 0.575256 0.179138
0.244812 0.588989 0.178314
0.399261 0.616730 0.135620
0.605682 0.646301 0.027649
0.841522 0.684326 0.003143
0.960510 0.673309 0.000000
0.000000 0.727875 0.290649
0.037140 0.728577 0.292145
0.180023 0.730194 0.303192
0.300262 0.728058 0.300781
0.429810 0.747406 0.286713
0.597015 0.768036 0.250671
0.773193 0.787445 0.186432
0.955048 0.821381 0.063477
0.328888 0.863647 0.443665
0.370087 0.866486 0.449249
0.419159 0.865692 0.453278
0.492432 0.863647 0.457825
0.575348 0.872772 0.454376
0.670074 0.881561 0.435669
0.787872 0.897064 0.412781
0.907288 0.907562 0.374054
0.000427 0.025085 0.067810
0.054443 0.031799 0.070526
0.147766 0.034912 0.067413
0.285461 0.035217 0.079956
0.431244 0.033813 0.082275
0.574738 0.033691 0.085114
0.721985 0.032593 0.071350
0.888458 0.038544 0.065063
0.000000 0.085815 0.074493
0.045837 0.092896 0.082703
0.166962 0.099182 0.081146
0.303497 0.099579 0.076111
0.439941 0.105438 0.081848
0.578674 0.104218 0.073364
0.732391 0.108978 0.069305
0.900604 0.118103 0.061127
0.000000 0.186584 0.096863
0.027405 0.187012 0.096039
0.158783 0.205414 0.080750
0.329803 0.205841 0.065063
0.471619 0.199554 0.066986
0.600342 0.203094 0.059113
0.755188 0.209381 0.050110
0.908600 0.226685 0.038361
0.001923 0.308533 0.124969
0.026611 0.310486 0.121521
0.139557 0.319489 0.124268
0.300751 0.346191 0.086609
0.496002 0.363495 0.026611
0.637177 0.335663 0.030334
0.787567 0.332123 0.027832
0.932465 0.345490 0.027832
0.001221 0.442261 0.163269
0.027832 0.440643 0.162415
0.150574 0.437225 0.166809
0.270477 0.461487 0.145935
0.446930 0.492981 0.084106
0.674530 0.525146 0.027832
0.820343 0.503510 0.027039
0.954346 0.483154 0.027618
0.000000 0.584259 0.233459
0.028015 0.583954 0.234894
0.148651 0.582733 0.236298
0.268494 0.592438 0.235901
0.413727 0.619873 0.199493
0.612396 0.650116 0.136322
0.842621 0.685455 0.026215
0.963745 0.668243 0.025818
0.036835 0.732819 0.340240
0.115997 0.733124 0.342682
0.222626 0.730988 0.345917
0.327179 0.728760 0.352997
0.442169 0.749298 0.337708
0.600830 0.770569 0.305542
0.779877 0.786041 0.258362
0.952606 0.822083 0.169922
0.345490 0.866089 0.477448
0.383667 0.866180 0.476837
0.434875 0.869232 0.488190
0.504395 0.867706 0.493866
0.581512 0.868622 0.489624
0.679077 0.882904 0.477448
0.787659 0.895447 0.454010
0.908997 0.907990 0.413818
0.000000 0.035339 0.152893
0.054871 0.038879 0.152893
0.167786 0.042419 0.158386
0.294067 0.037231 0.158783
0.442963 0.012543 0.156769
0.582214 0.023895 0.162628
0.726135 0.093323 0.188843
0.888458 0.103729 0.187103
0.000000 0.101105 0.166962
0.064667 0.103119 0.171631
0.179230 0.111725 0.170929
0.312500 0.114441 0.165863
0.452881 0.099976 0.162720
0.583130 0.140259 0.178711
0.730469 0.153320 0.181458
0.898651 0.159698 0.190979
0.000000 0.199158 0.173248
0.070221 0.207764 0.176788
0.205414 0.212524 0.179626
0.334045 0.217163 0.177612
0.469696 0.221924 0.184998
0.601166 0.229431 0.181152
0.753754 0.234467 0.188934
0.907288 0.248749 0.184265
0.084076 0.325378 0.210083
0.154938 0.326569 0.219177
0.216156 0.330505 0.216858
0.330902 0.352875 0.197235
0.502289 0.357635 0.179535
0.645691 0.340332 0.173950
0.791321 0.342743 0.172424
0.926819 0.358734 0.173370
0.140442 0.457947 0.272247
0.165558 0.460297 0.262817
0.221832 0.459442 0.258057
0.310974 0.469696 0.252197
0.469574 0.498840 0.224365
0.675232 0.521606 0.178528
0.821747 0.497223 0.162292
0.956268 0.485565 0.159180
0.119690 0.598999 0.332947
0.153503 0.597992 0.328308
0.227112 0.596100 0.323639
0.318909 0.595673 0.334686
0.443481 0.621490 0.309875
0.627350 0.650543 0.268250
0.843323 0.682312 0.211914
0.959686 0.666534 0.191681
0.176300 0.737274 0.417664
0.216064 0.739471 0.416138
0.283478 0.737976 0.417542
0.375946 0.736755 0.424133
0.477875 0.748108 0.416748
0.619965 0.770477 0.395203
0.787354 0.787964 0.355530
0.957275 0.823395 0.302795
0.374847 0.867889 0.528687
0.413300 0.868011 0.531281
0.466644 0.865692 0.533539
0.527283 0.867706 0.538788
0.600952 0.869629 0.543976
0.691620 0.880951 0.530487
0.794037 0.895844 0.514191
0.905548 0.908997 0.484955
0.005066 0.047791 0.278717
0.064667 0.052216 0.278717
0.203522 0.058899 0.285065
0.334442 0.068298 0.297546
0.453308 0.065582 0.285095
0.602661 0.062042 0.288208
0.756805 0.006775 0.280426
0.907288 0.011658 0.285797
0.000000 0.117981 0.286987
0.087433 0.120026 0.289001
0.220703 0.131348 0.300659
0.344666 0.140350 0.308533
0.462708 0.139648 0.294098
0.609741 0.136017 0.295593
0.761841 0.110199 0.296417
0.913666 0.142303 0.309967
0.000000 0.214844 0.303070
0.075287 0.212921 0.302277
0.227875 0.230133 0.308655
0.355621 0.244293 0.320801
0.482239 0.247437 0.317566
0.622711 0.239227 0.311798
0.766205 0.247437 0.317261
0.906769 0.285461 0.345398
0.046326 0.338806 0.315613
0.135315 0.343079 0.324646
0.243469 0.350952 0.333344
0.372101 0.361481 0.348206
0.499969 0.362701 0.349731
0.637299 0.365021 0.337982
0.786224 0.370178 0.339294
0.929230 0.383453 0.340424
0.160217 0.477997 0.375336
0.215759 0.482239 0.378387
0.308167 0.481537 0.395996
0.372498 0.487000 0.389008
0.497223 0.507751 0.376160
0.682312 0.510468 0.354797
0.823792 0.491760 0.336365
0.949982 0.499634 0.342224
0.248840 0.617249 0.460876
0.298157 0.615601 0.462891
0.337097 0.618378 0.453796
0.389008 0.615723 0.447083
0.482758 0.628479 0.440002
0.651733 0.652466 0.417450
0.844818 0.674133 0.390320
0.961731 0.657715 0.370178
0.322021 0.748108 0.522522
0.353394 0.747589 0.522003
0.387695 0.750824 0.514587
0.447693 0.747589 0.513794
0.528503 0.746460 0.516144
0.645966 0.772797 0.499329
0.796173 0.790802 0.473511
0.953827 0.820526 0.439606
0.450745 0.872894 0.600433
0.478271 0.870819 0.599121
0.510254 0.872772 0.595062
0.561157 0.871552 0.595978
0.630829 0.868408 0.601013
0.707214 0.881378 0.598206
0.801422 0.894745 0.578674
0.909515 0.907166 0.559631
0.001617 0.067505 0.440857
0.070923 0.071045 0.435699
0.225159 0.084015 0.448639
0.365936 0.103210 0.461182
0.495605 0.116180 0.473846
0.613892 0.113037 0.451263
0.778046 0.116272 0.457367
0.926819 0.113251 0.459381
0.001923 0.137634 0.445099
0.105957 0.141174 0.454224
0.243469 0.148651 0.460266
0.375946 0.169800 0.468262
0.506744 0.181671 0.477264
0.617523 0.180450 0.466949
0.783539 0.185211 0.462830
0.928314 0.179016 0.466766
0.000000 0.233673 0.461884
0.112122 0.236816 0.461884
0.244690 0.247833 0.471313
0.386993 0.265442 0.485077
0.515350 0.278503 0.493378
0.634857 0.280426 0.477692
0.790497 0.283997 0.478607
0.933075 0.278503 0.475677
0.000427 0.350433 0.469818
0.097656 0.353271 0.469391
0.230957 0.356842 0.478516
0.383057 0.375671 0.496521
0.521912 0.400757 0.512604
0.655701 0.397614 0.507050
0.803558 0.389099 0.501801
0.933990 0.389008 0.490234
0.108398 0.489349 0.495605
0.177002 0.489716 0.499146
0.279938 0.496429 0.511292
0.401184 0.508148 0.516144
0.537994 0.519165 0.531708
0.681213 0.517548 0.531342
0.814056 0.512909 0.519379
0.942505 0.522034 0.516052
0.244293 0.635559 0.545105
0.299866 0.634338 0.550262
0.379700 0.637573 0.557617
0.481232 0.634857 0.566650
0.557037 0.640320 0.572815
0.684235 0.663086 0.554504
0.843414 0.663910 0.534149
0.960114 0.644989 0.514923
0.386292 0.759949 0.611664
0.430511 0.758636 0.611481
0.489716 0.758301 0.616425
0.548309 0.762268 0.617950
0.595398 0.761566 0.610779
0.682831 0.767303 0.603699
0.810852 0.794434 0.588409
0.952728 0.816711 0.569977
0.527588 0.875580 0.678345
0.553375 0.875916 0.677765
0.585480 0.874390 0.673096
0.617432 0.875793 0.668945
0.662476 0.879028 0.659851
0.733948 0.880157 0.671478
0.816010 0.894745 0.659454
0.915497 0.910400 0.641235
0.000000 0.103333 0.610687
0.116180 0.104034 0.606201
0.255737 0.114960 0.614105
0.398834 0.136200 0.622284
0.545624 0.167999 0.632233
0.683014 0.181763 0.645172
0.788452 0.174774 0.620270
0.937531 0.207367 0.624847
0.034241 0.164734 0.607422
0.140167 0.171844 0.617645
0.266266 0.179626 0.618347
0.404388 0.196960 0.625458
0.550262 0.226807 0.640533
0.694275 0.238953 0.645172
0.794525 0.234985 0.624725
0.939056 0.264954 0.635956
0.054047 0.258850 0.614502
0.149078 0.262817 0.620697
0.273346 0.273346 0.624603
0.408630 0.291443 0.635651
0.562714 0.317261 0.646484
0.698822 0.331116 0.653778
0.804565 0.325653 0.633026
0.940552 0.356934 0.638000
0.002319 0.366241 0.623932
0.122742 0.369354 0.623108
0.265137 0.379211 0.632111
0.414520 0.395691 0.641022
0.569489 0.423218 0.654877
0.706818 0.445068 0.665405
0.814575 0.441223 0.650421
0.943604 0.462982 0.649841
0.051025 0.501892 0.628479
0.142883 0.501892 0.632935
0.258972 0.507843 0.638397
0.392151 0.510193 0.643433
0.570190 0.534454 0.656403
0.718964 0.560760 0.672089
0.828156 0.560760 0.665833
0.945526 0.553802 0.658752
0.212921 0.640015 0.654785
0.266174 0.644257 0.650940
0.357849 0.646179 0.656403
0.467133 0.653961 0.659943
0.598022 0.659546 0.671692
0.728058 0.674530 0.681000
0.836639 0.668945 0.674316
0.942108 0.665314 0.662079
0.402069 0.771973 0.687347
0.443756 0.773193 0.693237
0.502686 0.777039 0.692841
0.580505 0.775909 0.696777
0.672485 0.775909 0.707733
0.738983 0.777435 0.704285
0.838470 0.795563 0.695282
0.952515 0.802551 0.681396
0.534821 0.881683 0.741425
0.565399 0.885315 0.739990
0.614288 0.882782 0.744537
0.668610 0.882385 0.748199
0.723602 0.885925 0.746887
0.766022 0.885315 0.744049
0.828247 0.892700 0.737549
0.920746 0.910736 0.724518
0.152618 0.157166 0.756805
0.216858 0.157898 0.753662
0.324249 0.169617 0.755188
0.452972 0.186096 0.757507
0.600952 0.212036 0.766205
0.748199 0.261902 0.775238
0.863464 0.275665 0.778778
0.944214 0.279602 0.755066
0.167908 0.210999 0.754059
0.233276 0.216980 0.757904
0.337006 0.226074 0.762268
0.461670 0.242859 0.760956
0.608734 0.266876 0.769348
0.751312 0.315033 0.775513
0.869354 0.333252 0.779144
0.944214 0.327820 0.762665
0.175385 0.302063 0.756805
0.239319 0.302979 0.759521
0.345398 0.313812 0.763885
0.471375 0.327484 0.767303
0.613495 0.356232 0.771667
0.758514 0.395508 0.776031
0.870544 0.415131 0.787354
0.942596 0.409668 0.766937
0.156464 0.402069 0.759430
0.229126 0.407043 0.760132
0.339325 0.414520 0.764069
0.474213 0.432220 0.766724
0.623230 0.457733 0.776337
0.765381 0.493835 0.781799
0.868011 0.515015 0.789581
0.943298 0.510651 0.774384
0.069855 0.513611 0.752167
0.162720 0.514832 0.751648
0.298920 0.523041 0.757507
0.456604 0.532532 0.764282
0.617249 0.559265 0.779358
0.764374 0.592255 0.789398
0.872772 0.614929 0.794434
0.945740 0.613495 0.778656
0.218903 0.653992 0.761749
0.275787 0.653656 0.765106
0.356232 0.655609 0.765991
0.464020 0.656403 0.771179
0.583252 0.658142 0.774902
0.745453 0.684753 0.783722
0.863373 0.719238 0.800629
0.947662 0.714813 0.789886
0.376068 0.777039 0.776337
0.417969 0.780579 0.776733
0.476257 0.781708 0.777832
0.566437 0.786957 0.779480
0.659546 0.789673 0.785431
0.761841 0.792023 0.797882
0.855469 0.805267 0.805267
0.945221 0.799011 0.790009
0.546387 0.893616 0.810516
0.575226 0.897461 0.813965
0.618652 0.894318 0.811859
0.673889 0.894745 0.815796
0.740509 0.897766 0.820251
0.807709 0.898560 0.827240
0.860626 0.894745 0.824188
0.932983 0.911713 0.820953
0.314423 0.240356 0.879364
0.363190 0.246735 0.879730
0.447510 0.253693 0.884216
0.559235 0.271301 0.885925
0.686981 0.301300 0.888153
0.809937 0.347626 0.887939
0.908600 0.410461 0.889069
0.980347 0.427979 0.891907
0.323853 0.294800 0.882904
0.375458 0.301178 0.884613
0.456512 0.305023 0.881775
0.566101 0.322723 0.884918
0.689301 0.347717 0.886322
0.806366 0.398224 0.890167
0.905762 0.452972 0.893219
0.980652 0.467743 0.894623
0.332153 0.374847 0.886230
0.382111 0.375153 0.884918
0.466339 0.380524 0.883606
0.572205 0.400238 0.879333
0.693848 0.424957 0.884125
0.809296 0.462189 0.886719
0.904144 0.517242 0.892426
0.978943 0.530914 0.895630
0.334564 0.464813 0.881287
0.382019 0.468445 0.878937
0.466431 0.475433 0.884399
0.581482 0.489502 0.885712
0.697388 0.510681 0.884003
0.809296 0.548401 0.887146
0.898895 0.589508 0.895020
0.971222 0.606110 0.892181
0.301483 0.562103 0.881775
0.354004 0.562805 0.881378
0.439911 0.567841 0.880157
0.559753 0.577667 0.884918
0.691010 0.598511 0.889069
0.802643 0.630310 0.893097
0.892181 0.669159 0.895721
0.967499 0.682526 0.896545
0.288940 0.676453 0.878540
0.330444 0.674133 0.881073
0.401886 0.673309 0.883270
0.510345 0.674713 0.882080
0.651459 0.683929 0.886932
0.788574 0.711761 0.896759
0.888763 0.743530 0.900604
0.958099 0.766205 0.903656
0.407257 0.799103 0.885223
0.444885 0.798309 0.882477
0.501648 0.799103 0.883789
0.573090 0.799896 0.887848
0.653656 0.796356 0.888763
0.743439 0.794769 0.888031
0.871155 0.817505 0.899597
0.949371 0.849304 0.907990
0.519867 0.904449 0.891907
0.557220 0.900909 0.894318
0.599396 0.898468 0.891907
0.654968 0.901306 0.893524
0.723206 0.901917 0.894623
0.795563 0.905670 0.901611
0.871155 0.910309 0.912445
0.948669 0.917297 0.914154
