assets/Luts/street.cube
TITLE "OpenStreetRace street grade"
# Baked by scripts/bake-grade.py from the constants PresentToScreenFragmentShader once held.
# Edit this file, or replace it with one from a grading tool; nothing rebuilds it.
LUT_3D_SIZE 5
DOMAIN_MIN 0.0 0.0 0.0
DOMAIN_MAX 1.0 1.0 1.0
0.000000 0.000000 0.008402
0.253598 0.000000 0.002453
0.536938 0.000000 0.000000
0.829300 0.000000 0.000000
1.000000 0.000000 0.000000
0.000000 0.247660 0.000000
0.239093 0.242615 0.000000
0.522432 0.237142 0.000000
0.814794 0.231495 0.000000
1.000000 0.225731 0.000000
0.000000 0.517266 0.000000
0.223355 0.512221 0.000000
0.506695 0.506748 0.000000
0.799057 0.501101 0.000000
1.000000 0.495337 0.000000
0.000000 0.795457 0.000000
0.207116 0.790412 0.000000
0.490456 0.784939 0.000000
0.782818 0.779292 0.000000
1.000000 0.773528 0.000000
0.000000 1.000000 0.000000
0.190543 1.000000 0.000000
0.473883 1.000000 0.000000
0.766245 1.000000 0.000000
1.000000 1.000000 0.000000
0.000000 0.000000 0.271850
0.252134 0.000000 0.265900
0.535473 0.000000 0.259445
0.827836 0.000000 0.252785
1.000000 0.000000 0.245987
0.000000 0.245947 0.251835
0.237629 0.240902 0.245885
0.520968 0.235429 0.239430
0.813330 0.229782 0.232770
1.000000 0.224018 0.225972
0.000000 0.515552 0.230120
0.221891 0.510508 0.224170
0.505230 0.505035 0.217715
0.797592 0.499387 0.211054
1.000000 0.493624 0.204257
0.000000 0.793744 0.207713
0.205652 0.788699 0.201763
0.488991 0.783226 0.195308
0.781354 0.777579 0.188648
1.000000 0.771815 0.181850
0.000000 1.000000 0.184845
0.189079 1.000000 0.178896
0.472418 1.000000 0.172441
0.764781 1.000000 0.165780
1.000000 1.000000 0.158982
0.000000 0.000000 0.557675
0.250545 0.000000 0.551725
0.533885 0.000000 0.545270
0.826247 0.000000 0.538610
1.000000 0.000000 0.531812
0.000000 0.244088 0.537660
0.236040 0.239044 0.531710
0.519379 0.233571 0.525255
0.811741 0.227923 0.518595
1.000000 0.222160 0.511797
0.000000 0.513694 0.515945
0.220302 0.508649 0.509995
0.503641 0.503176 0.503540
0.796004 0.497529 0.496880
1.000000 0.491765 0.490082
0.000000 0.791885 0.493538
0.204063 0.786841 0.487589
0.487403 0.781368 0.481134
0.779765 0.775720 0.474473
1.000000 0.769957 0.467675
0.000000 1.000000 0.470670
0.187490 1.000000 0.464721
0.470830 1.000000 0.458266
0.763192 1.000000 0.451605
1.000000 1.000000 0.444962
0.000000 0.000000 0.852602
0.248906 0.000000 0.846653
0.532245 0.000000 0.840198
0.824608 0.000000 0.833537
1.000000 0.000000 0.826740
0.000000 0.242170 0.832587
0.234401 0.237126 0.826638
0.517740 0.231653 0.820183
0.810102 0.226005 0.813522
1.000000 0.220242 0.806725
0.000000 0.511776 0.810872
0.218663 0.506731 0.804923
0.502002 0.501258 0.798468
0.794364 0.495611 0.791807
1.000000 0.489847 0.785009
0.000000 0.789967 0.788466
0.202424 0.784923 0.782516
0.485763 0.779450 0.776061
0.778126 0.773802 0.769400
1.000000 0.768039 0.762603
0.000000 1.000000 0.765598
0.185851 1.000000 0.759648
0.469190 1.000000 0.753193
0.761553 1.000000 0.746533
1.000000 1.000000 0.740200
0.000000 0.000000 1.000000
0.247233 0.000000 1.000000
0.530572 0.000000 1.000000
0.822935 0.000000 1.000000
1.000000 0.000000 1.000000
0.000000 0.240213 1.000000
0.232727 0.235168 1.000000
0.516067 0.229695 1.000000
0.808429 0.224048 1.000000
1.000000 0.218284 1.000000
0.000000 0.509819 1.000000
0.216990 0.504774 1.000000
0.500329 0.499301 1.000000
0.792691 0.493654 1.000000
1.000000 0.487890 1.000000
0.000000 0.788010 1.000000
0.200751 0.782965 1.000000
0.484090 0.777492 1.000000
0.776453 0.771845 1.000000
1.000000 0.766081 1.000000
0.000000 1.000000 1.000000
0.184178 1.000000 1.000000
0.467517 1.000000 1.000000
0.759879 1.000000 1.000000
1.000000 1.000000 1.000000
