assets/Luts/street.cube
TITLE "OpenStreetRace street grade"
# Baked by scripts/bake-grade.py from the constants PresentToScreenFragmentShader once held.
# Edit this file, or replace it with one from a grading tool; nothing rebuilds it.
LUT_3D_SIZE 9
DOMAIN_MIN 0.0 0.0 0.0
DOMAIN_MAX 1.0 1.0 1.0
0.000000 0.000000 0.008402
0.117700 0.000000 0.005549
0.253598 0.000000 0.002453
0.393825 0.000000 0.000000
0.536938 0.000000 0.000000
0.682236 0.000000 0.000000
0.829300 0.000000 0.000000
0.977849 0.000000 0.000000
1.000000 0.000000 0.000000
0.000000 0.118349 0.000000
0.110743 0.115929 0.000000
0.246641 0.113304 0.000000
0.386868 0.110595 0.000000
0.529980 0.107831 0.000000
0.675279 0.105024 0.000000
0.822343 0.102184 0.000000
0.970891 0.099314 0.000000
1.000000 0.096420 0.000000
0.000000 0.247660 0.000000
0.103194 0.245241 0.000000
0.239093 0.242615 0.000000
0.379319 0.239907 0.000000
0.522432 0.237142 0.000000
0.667730 0.234336 0.000000
0.814794 0.231495 0.000000
0.963343 0.228626 0.000000
1.000000 0.225731 0.000000
0.000000 0.381090 0.000000
0.095406 0.378670 0.000000
0.231304 0.376045 0.000000
0.371531 0.373336 0.000000
0.514643 0.370572 0.000000
0.659942 0.367765 0.000000
0.807006 0.364925 0.000000
0.955555 0.362055 0.000000
1.000000 0.359161 0.000000
0.000000 0.517266 0.000000
0.087457 0.514846 0.000000
0.223355 0.512221 0.000000
0.363582 0.509512 0.000000
0.506695 0.506748 0.000000
0.651993 0.503941 0.000000
0.799057 0.501101 0.000000
0.947606 0.498231 0.000000
1.000000 0.495337 0.000000
0.000000 0.655521 0.000000
0.079386 0.653102 0.000000
0.215285 0.650477 0.000000
0.355511 0.647768 0.000000
0.498624 0.645004 0.000000
0.643922 0.642197 0.000000
0.790986 0.639356 0.000000
0.939535 0.636487 0.000000
1.000000 0.633593 0.000000
0.000000 0.795457 0.000000
0.071218 0.793037 0.000000
0.207116 0.790412 0.000000
0.347343 0.787704 0.000000
0.490456 0.784939 0.000000
0.635754 0.782133 0.000000
0.782818 0.779292 0.000000
0.931367 0.776423 0.000000
1.000000 0.773528 0.000000
0.000000 0.936806 0.000000
0.062967 0.934386 0.000000
0.198866 0.931761 0.000000
0.339092 0.929052 0.000000
0.482205 0.926288 0.000000
0.627503 0.923481 0.000000
0.774567 0.920641 0.000000
0.923116 0.917771 0.000000
1.000000 0.914877 0.000000
0.000000 1.000000 0.000000
0.054645 1.000000 0.000000
0.190543 1.000000 0.000000
0.330770 1.000000 0.000000
0.473883 1.000000 0.000000
0.619181 1.000000 0.000000
0.766245 1.000000 0.000000
0.914794 1.000000 0.000000
1.000000 1.000000 0.000000
0.000000 0.000000 0.134759
0.116998 0.000000 0.131905
0.252896 0.000000 0.128809
0.393122 0.000000 0.125615
0.536235 0.000000 0.122354
0.681534 0.000000 0.119044
0.828598 0.000000 0.115694
0.977146 0.000000 0.112309
1.000000 0.000000 0.108896
0.000000 0.117527 0.125159
0.110040 0.115107 0.122305
0.245939 0.112482 0.119209
0.386165 0.109774 0.116015
0.529278 0.107009 0.112754
0.674576 0.104203 0.109444
0.821640 0.101362 0.106094
0.970189 0.098492 0.102710
1.000000 0.095598 0.099296
0.000000 0.246838 0.114744
0.102492 0.244419 0.111890
0.238391 0.241794 0.108794
0.378617 0.239085 0.105600
0.521730 0.236321 0.102339
0.667028 0.233514 0.099029
0.814092 0.230673 0.095679
0.962641 0.227804 0.092294
1.000000 0.224910 0.088881
0.000000 0.380268 0.103997
0.094703 0.377848 0.101143
0.230602 0.375223 0.098047
0.370828 0.372515 0.094853
0.513941 0.369750 0.091592
0.659239 0.366944 0.088282
0.806303 0.364103 0.084932
0.954852 0.361233 0.081547
1.000000 0.358339 0.078134
0.000000 0.516444 0.093029
0.086754 0.514024 0.090175
0.222653 0.511399 0.087079
0.362879 0.508691 0.083884
0.505992 0.505926 0.080624
0.651290 0.503120 0.077314
0.798354 0.500279 0.073963
0.946903 0.497410 0.070579
1.000000 0.494515 0.067166
0.000000 0.654700 0.081893
0.078684 0.652280 0.079039
0.214583 0.649655 0.075943
0.354809 0.646946 0.072749
0.497922 0.644182 0.069488
0.643220 0.641375 0.066178
0.790284 0.638535 0.062828
0.938833 0.635665 0.059444
1.000000 0.632771 0.056030
0.000000 0.794635 0.070622
0.070516 0.792216 0.067769
0.206414 0.789591 0.064672
0.346640 0.786882 0.061478
0.489753 0.784118 0.058217
0.635052 0.781311 0.054907
0.782116 0.778470 0.051557
0.930664 0.775601 0.048173
1.000000 0.772707 0.044759
0.000000 0.935984 0.059237
0.062265 0.933564 0.056384
0.198163 0.930939 0.053288
0.338390 0.928231 0.050093
0.481502 0.925466 0.046833
0.626801 0.922660 0.043523
0.773865 0.919819 0.040172
0.922414 0.916949 0.036788
1.000000 0.914055 0.033374
0.000000 1.000000 0.047754
0.053943 1.000000 0.044901
0.189841 1.000000 0.041805
0.330067 1.000000 0.038610
0.473180 1.000000 0.035350
0.618479 1.000000 0.032039
0.765543 1.000000 0.028689
0.914091 1.000000 0.025305
1.000000 1.000000 0.021891
0.000000 0.000000 0.271850
0.116236 0.000000 0.268996
0.252134 0.000000 0.265900
0.392360 0.000000 0.262705
0.535473 0.000000 0.259445
0.680772 0.000000 0.256135
0.827836 0.000000 0.252785
0.976384 0.000000 0.249400
1.000000 0.000000 0.245987
0.000000 0.116635 0.262250
0.109278 0.114216 0.259396
0.245177 0.111591 0.256300
0.385403 0.108882 0.253106
0.528516 0.106118 0.249845
0.673814 0.103311 0.246535
0.820878 0.100470 0.243185
0.969427 0.097601 0.239801
1.000000 0.094707 0.236387
0.000000 0.245947 0.251835
0.101730 0.243527 0.248981
0.237629 0.240902 0.245885
0.377855 0.238194 0.242690
0.520968 0.235429 0.239430
0.666266 0.232623 0.236120
0.813330 0.229782 0.232770
0.961879 0.226912 0.229385
1.000000 0.224018 0.225972
0.000000 0.379376 0.241088
0.093941 0.376957 0.238234
0.229840 0.374332 0.235138
0.370066 0.371623 0.231944
0.513179 0.368859 0.228683
0.658477 0.366052 0.225373
0.805541 0.363211 0.222023
0.954090 0.360342 0.218638
1.000000 0.357448 0.215225
0.000000 0.515552 0.230120
0.085992 0.513133 0.227266
0.221891 0.510508 0.224170
0.362117 0.507799 0.220975
0.505230 0.505035 0.217715
0.650528 0.502228 0.214405
0.797592 0.499387 0.211054
0.946141 0.496518 0.207670
1.000000 0.493624 0.204257
0.000000 0.653808 0.218984
0.077922 0.651389 0.216130
0.213821 0.648764 0.213034
0.354047 0.646055 0.209840
0.497160 0.643290 0.206579
0.642458 0.640484 0.203269
0.789522 0.637643 0.199919
0.938071 0.634774 0.196535
1.000000 0.631879 0.193121
0.000000 0.793744 0.207713
0.069754 0.791324 0.204859
0.205652 0.788699 0.201763
0.345878 0.785991 0.198569
0.488991 0.783226 0.195308
0.634290 0.780420 0.191998
0.781354 0.777579 0.188648
0.929902 0.774709 0.185264
1.000000 0.771815 0.181850
0.000000 0.935092 0.196328
0.061503 0.932673 0.193475
0.197401 0.930048 0.190379
0.337628 0.927339 0.187184
0.480740 0.924575 0.183924
0.626039 0.921768 0.180613
0.773103 0.918927 0.177263
0.921651 0.916058 0.173879
1.000000 0.913164 0.170465
0.000000 1.000000 0.184845
0.053180 1.000000 0.181992
0.189079 1.000000 0.178896
0.329305 1.000000 0.175701
0.472418 1.000000 0.172441
0.617717 1.000000 0.169130
0.764781 1.000000 0.165780
0.913329 1.000000 0.162396
1.000000 1.000000 0.158982
0.000000 0.000000 0.413306
0.115449 0.000000 0.410453
0.251348 0.000000 0.407357
0.391574 0.000000 0.404162
0.534687 0.000000 0.400902
0.679985 0.000000 0.397592
0.827049 0.000000 0.394241
0.975598 0.000000 0.390857
1.000000 0.000000 0.387443
0.000000 0.115716 0.403707
0.108492 0.113296 0.400853
0.244391 0.110671 0.397757
0.384617 0.107962 0.394562
0.527730 0.105198 0.391302
0.673028 0.102391 0.387992
0.820092 0.099551 0.384641
0.968641 0.096681 0.381257
1.000000 0.093787 0.377844
0.000000 0.245027 0.393291
0.100944 0.242607 0.390438
0.236842 0.239982 0.387342
0.377069 0.237274 0.384147
0.520182 0.234509 0.380887
0.665480 0.231703 0.377577
0.812544 0.228862 0.374226
0.961093 0.225993 0.370842
1.000000 0.223098 0.367429
0.000000 0.378457 0.382545
0.093155 0.376037 0.379691
0.229054 0.373412 0.376595
0.369280 0.370703 0.373400
0.512393 0.367939 0.370140
0.657691 0.365132 0.366830
0.804755 0.362291 0.363479
0.953304 0.359422 0.360095
1.000000 0.356528 0.356682
0.000000 0.514633 0.371576
0.085206 0.512213 0.368723
0.221105 0.509588 0.365627
0.361331 0.506879 0.362432
0.504444 0.504115 0.359172
0.649742 0.501308 0.355862
0.796806 0.498468 0.352511
0.945355 0.495598 0.349127
1.000000 0.492704 0.345713
0.000000 0.652888 0.360441
0.077136 0.650469 0.357587
0.213034 0.647844 0.354491
0.353261 0.645135 0.351296
0.496374 0.642371 0.348036
0.641672 0.639564 0.344726
0.788736 0.636723 0.341375
0.937285 0.633854 0.337991
1.000000 0.630960 0.334578
0.000000 0.792824 0.349170
0.068967 0.790404 0.346316
0.204866 0.787779 0.343220
0.345092 0.785071 0.340025
0.488205 0.782306 0.336765
0.633503 0.779500 0.333455
0.780567 0.776659 0.330104
0.929116 0.773790 0.326720
1.000000 0.770895 0.323307
0.000000 0.934172 0.337785
0.060716 0.931753 0.334931
0.196615 0.929128 0.331835
0.336841 0.926419 0.328641
0.479954 0.923655 0.325380
0.625252 0.920848 0.322070
0.772316 0.918007 0.318720
0.920865 0.915138 0.315335
1.000000 0.912244 0.311922
0.000000 1.000000 0.326302
0.052394 1.000000 0.323448
0.188293 1.000000 0.320352
0.328519 1.000000 0.317158
0.471632 1.000000 0.313897
0.616930 1.000000 0.310587
0.763994 1.000000 0.307237
0.912543 1.000000 0.303852
1.000000 1.000000 0.300441
0.000000 0.000000 0.557675
0.114647 0.000000 0.554821
0.250545 0.000000 0.551725
0.390772 0.000000 0.548531
0.533885 0.000000 0.545270
0.679183 0.000000 0.541960
0.826247 0.000000 0.538610
0.974796 0.000000 0.535225
1.000000 0.000000 0.531812
0.000000 0.114777 0.548075
0.107690 0.112357 0.545222
0.243588 0.109732 0.542126
0.383814 0.107023 0.538931
0.526927 0.104259 0.535671
0.672226 0.101452 0.532360
0.819290 0.098612 0.529010
0.967838 0.095742 0.525626
1.000000 0.092848 0.522212
0.000000 0.244088 0.537660
0.100141 0.241669 0.534806
0.236040 0.239044 0.531710
0.376266 0.236335 0.528516
0.519379 0.233571 0.525255
0.664677 0.230764 0.521945
0.811741 0.227923 0.518595
0.960290 0.225054 0.515211
1.000000 0.222160 0.511797
0.000000 0.377518 0.526913
0.092353 0.375098 0.524059
0.228251 0.372473 0.520963
0.368478 0.369764 0.517769
0.511590 0.367000 0.514508
0.656889 0.364193 0.511198
0.803953 0.361353 0.507848
0.952501 0.358483 0.504464
1.000000 0.355589 0.501050
0.000000 0.513694 0.515945
0.084404 0.511274 0.513091
0.220302 0.508649 0.509995
0.360529 0.505941 0.506801
0.503641 0.503176 0.503540
0.648940 0.500370 0.500230
0.796004 0.497529 0.496880
0.944552 0.494659 0.493495
1.000000 0.491765 0.490082
0.000000 0.651949 0.504809
0.076333 0.649530 0.501956
0.212232 0.646905 0.498860
0.352458 0.644196 0.495665
0.495571 0.641432 0.492405
0.640869 0.638625 0.489094
0.787933 0.635784 0.485744
0.936482 0.632915 0.482360
1.000000 0.630021 0.478946
0.000000 0.791885 0.493538
0.068165 0.789466 0.490685
0.204063 0.786841 0.487589
0.344290 0.784132 0.484394
0.487403 0.781368 0.481134
0.632701 0.778561 0.477823
0.779765 0.775720 0.474473
0.928314 0.772851 0.471089
1.000000 0.769957 0.467675
0.000000 0.933234 0.482153
0.059914 0.930814 0.479300
0.195813 0.928189 0.476204
0.336039 0.925480 0.473009
0.479152 0.922716 0.469749
0.624450 0.919909 0.466439
0.771514 0.917069 0.463088
0.920063 0.914199 0.459704
1.000000 0.911305 0.456291
0.000000 1.000000 0.470670
0.051592 1.000000 0.467817
0.187490 1.000000 0.464721
0.327717 1.000000 0.461526
0.470830 1.000000 0.458266
0.616128 1.000000 0.454956
0.763192 1.000000 0.451605
0.911741 1.000000 0.448221
1.000000 1.000000 0.444962
0.000000 0.000000 0.704248
0.113832 0.000000 0.701395
0.249731 0.000000 0.698298
0.389957 0.000000 0.695104
0.533070 0.000000 0.691843
0.678368 0.000000 0.688533
0.825432 0.000000 0.685183
0.973981 0.000000 0.681799
1.000000 0.000000 0.678385
0.000000 0.113824 0.694648
0.106875 0.111404 0.691795
0.242773 0.108779 0.688699
0.383000 0.106070 0.685504
0.526113 0.103306 0.682244
0.671411 0.100499 0.678934
0.818475 0.097659 0.675583
0.967024 0.094789 0.672199
1.000000 0.091895 0.668785
0.000000 0.243135 0.684233
0.099327 0.240716 0.681380
0.235225 0.238090 0.678283
0.375451 0.235382 0.675089
0.518564 0.232617 0.671828
0.663863 0.229811 0.668518
0.810927 0.226970 0.665168
0.959475 0.224101 0.661784
1.000000 0.221206 0.658370
0.000000 0.376565 0.673486
0.091538 0.374145 0.670633
0.227437 0.371520 0.667537
0.367663 0.368811 0.664342
0.510776 0.366047 0.661082
0.656074 0.363240 0.657771
0.803138 0.360400 0.654421
0.951687 0.357530 0.651037
1.000000 0.354636 0.647623
0.000000 0.512741 0.662518
0.083589 0.510321 0.659664
0.219488 0.507696 0.656568
0.359714 0.504987 0.653374
0.502827 0.502223 0.650113
0.648125 0.499416 0.646803
0.795189 0.496576 0.643453
0.943738 0.493706 0.640069
1.000000 0.490812 0.636655
0.000000 0.650996 0.651382
0.075519 0.648577 0.648529
0.211417 0.645952 0.645433
0.351643 0.643243 0.642238
0.494756 0.640479 0.638978
0.640055 0.637672 0.635668
0.787119 0.634831 0.632317
0.935667 0.631962 0.628933
1.000000 0.629068 0.625519
0.000000 0.790932 0.640111
0.067350 0.788512 0.637258
0.203249 0.785887 0.634162
0.343475 0.783179 0.630967
0.486588 0.780414 0.627707
0.631886 0.777608 0.624397
0.778950 0.774767 0.621046
0.927499 0.771898 0.617662
1.000000 0.769003 0.614248
0.000000 0.932281 0.628727
0.059099 0.929861 0.625873
0.194998 0.927236 0.622777
0.335224 0.924527 0.619582
0.478337 0.921763 0.616322
0.623635 0.918956 0.613012
0.770699 0.916116 0.609661
0.919248 0.913246 0.606277
1.000000 0.910352 0.602864
0.000000 1.000000 0.617244
0.050777 1.000000 0.614390
0.186676 1.000000 0.611294
0.326902 1.000000 0.608099
0.470015 1.000000 0.604839
0.615313 1.000000 0.601529
0.762377 1.000000 0.598178
0.910926 1.000000 0.594794
1.000000 1.000000 0.591690
0.000000 0.000000 0.852602
0.113007 0.000000 0.849749
0.248906 0.000000 0.846653
0.389132 0.000000 0.843458
0.532245 0.000000 0.840198
0.677544 0.000000 0.836888
0.824608 0.000000 0.833537
0.973156 0.000000 0.830153
1.000000 0.000000 0.826740
0.000000 0.112859 0.843003
0.106050 0.110439 0.840149
0.241949 0.107814 0.837053
0.382175 0.105106 0.833858
0.525288 0.102341 0.830598
0.670586 0.099535 0.827288
0.817650 0.096694 0.823937
0.966199 0.093824 0.820553
1.000000 0.090930 0.817140
0.000000 0.242170 0.832587
0.098502 0.239751 0.829734
0.234401 0.237126 0.826638
0.374627 0.234417 0.823443
0.517740 0.231653 0.820183
0.663038 0.228846 0.816873
0.810102 0.226005 0.813522
0.958651 0.223136 0.810138
1.000000 0.220242 0.806725
0.000000 0.375600 0.821841
0.090713 0.373180 0.818987
0.226612 0.370555 0.815891
0.366838 0.367847 0.812696
0.509951 0.365082 0.809436
0.655249 0.362276 0.806126
0.802313 0.359435 0.802775
0.950862 0.356565 0.799391
1.000000 0.353671 0.795978
0.000000 0.511776 0.810872
0.082764 0.509356 0.808019
0.218663 0.506731 0.804923
0.358889 0.504023 0.801728
0.502002 0.501258 0.798468
0.647300 0.498452 0.795158
0.794364 0.495611 0.791807
0.942913 0.492742 0.788423
1.000000 0.489847 0.785009
0.000000 0.650032 0.799737
0.074694 0.647612 0.796883
0.210593 0.644987 0.793787
0.350819 0.642278 0.790592
0.493932 0.639514 0.787332
0.639230 0.636707 0.784022
0.786294 0.633867 0.780671
0.934843 0.630997 0.777287
1.000000 0.628103 0.773874
0.000000 0.789967 0.788466
0.066526 0.787548 0.785612
0.202424 0.784923 0.782516
0.342650 0.782214 0.779321
0.485763 0.779450 0.776061
0.631062 0.776643 0.772751
0.778126 0.773802 0.769400
0.926674 0.770933 0.766016
1.000000 0.768039 0.762603
0.000000 0.931316 0.777081
0.058275 0.928896 0.774227
0.194173 0.926271 0.771131
0.334400 0.923563 0.767937
0.477512 0.920798 0.764676
0.622811 0.917992 0.761366
0.769875 0.915151 0.758016
0.918423 0.912281 0.754632
1.000000 0.909387 0.751218
0.000000 1.000000 0.765598
0.049952 1.000000 0.762744
0.185851 1.000000 0.759648
0.326077 1.000000 0.756454
0.469190 1.000000 0.753193
0.614489 1.000000 0.749883
0.761553 1.000000 0.746533
0.910101 1.000000 0.743148
1.000000 1.000000 0.740200
0.000000 0.000000 1.000000
0.112175 0.000000 0.999601
0.248073 0.000000 0.996505
0.388299 0.000000 0.993310
0.531412 0.000000 0.990050
0.676711 0.000000 0.986740
0.823775 0.000000 0.983389
0.972323 0.000000 0.980005
1.000000 0.000000 0.976592
0.000000 0.111884 0.992855
0.105217 0.109465 0.990001
0.241116 0.106840 0.986905
0.381342 0.104131 0.983711
0.524455 0.101367 0.980450
0.669753 0.098560 0.977140
0.816817 0.095719 0.973790
0.965366 0.092850 0.970405
1.000000 0.089956 0.966992
0.000000 0.241196 0.982440
0.097669 0.238776 0.979586
0.233568 0.236151 0.976490
0.373794 0.233443 0.973295
0.516907 0.230678 0.970035
0.662205 0.227872 0.966725
0.809269 0.225031 0.963374
0.957818 0.222161 0.959990
1.000000 0.219267 0.956577
0.000000 0.374625 0.971693
0.089880 0.372206 0.968839
0.225779 0.369581 0.965743
0.366005 0.366872 0.962548
0.509118 0.364108 0.959288
0.654416 0.361301 0.955978
0.801480 0.358460 0.952627
0.950029 0.355591 0.949243
1.000000 0.352697 0.945830
0.000000 0.510801 0.960724
0.081931 0.508382 0.957871
0.217830 0.505757 0.954775
0.358056 0.503048 0.951580
0.501169 0.500284 0.948320
0.646467 0.497477 0.945010
0.793531 0.494636 0.941659
0.942080 0.491767 0.938275
1.000000 0.488873 0.934862
0.000000 0.649057 0.949589
0.073861 0.646638 0.946735
0.209760 0.644013 0.943639
0.349986 0.641304 0.940445
0.493099 0.638539 0.937184
0.638397 0.635733 0.933874
0.785461 0.632892 0.930524
0.934010 0.630023 0.927139
1.000000 0.627128 0.923726
0.000000 0.788993 0.938318
0.065693 0.786573 0.935464
0.201591 0.783948 0.932368
0.341817 0.781240 0.929174
0.484930 0.778475 0.925913
0.630229 0.775669 0.922603
0.777293 0.772828 0.919253
0.925841 0.769958 0.915868
1.000000 0.767064 0.912455
0.000000 0.930341 0.926933
0.057442 0.927922 0.924079
0.193340 0.925297 0.920983
0.333567 0.922588 0.917789
0.476679 0.919824 0.914528
0.621978 0.917017 0.911218
0.769042 0.914176 0.907868
0.917591 0.911307 0.904484
1.000000 0.908413 0.901070
0.000000 1.000000 0.915450
0.049120 1.000000 0.912596
0.185018 1.000000 0.909500
0.325244 1.000000 0.906306
0.468357 1.000000 0.903045
0.613656 1.000000 0.899735
0.760720 1.000000 0.896385
0.909114 1.000000 0.893154
1.000000 1.000000 0.890211
0.000000 0.000000 1.000000
0.111334 0.000000 1.000000
0.247233 0.000000 1.000000
0.387459 0.000000 1.000000
0.530572 0.000000 1.000000
0.675871 0.000000 1.000000
0.822935 0.000000 1.000000
0.971483 0.000000 1.000000
1.000000 0.000000 1.000000
0.000000 0.110901 1.000000
0.104377 0.108482 1.000000
0.240276 0.105857 1.000000
0.380502 0.103148 1.000000
0.523615 0.100384 1.000000
0.668913 0.097577 1.000000
0.815977 0.094736 1.000000
0.964526 0.091867 1.000000
1.000000 0.088973 1.000000
0.000000 0.240213 1.000000
0.096829 0.237793 1.000000
0.232727 0.235168 1.000000
0.372954 0.232460 1.000000
0.516067 0.229695 1.000000
0.661365 0.226889 1.000000
0.808429 0.224048 1.000000
0.956978 0.221179 1.000000
1.000000 0.218284 1.000000
0.000000 0.373642 1.000000
0.089040 0.371223 1.000000
0.224939 0.368598 1.000000
0.365165 0.365889 1.000000
0.508278 0.363125 1.000000
0.653576 0.360318 1.000000
0.800640 0.357477 1.000000
0.949189 0.354608 1.000000
1.000000 0.351714 1.000000
0.000000 0.509819 1.000000
0.081091 0.507399 1.000000
0.216990 0.504774 1.000000
0.357216 0.502065 1.000000
0.500329 0.499301 1.000000
0.645627 0.496494 1.000000
0.792691 0.493654 1.000000
0.941240 0.490784 1.000000
1.000000 0.487890 1.000000
0.000000 0.648074 1.000000
0.073021 0.645655 1.000000
0.208919 0.643030 1.000000
0.349146 0.640321 1.000000
0.492259 0.637557 1.000000
0.637557 0.634750 1.000000
0.784621 0.631909 1.000000
0.933170 0.629040 1.000000
1.000000 0.626146 1.000000
0.000000 0.788010 1.000000
0.064852 0.785590 1.000000
0.200751 0.782965 1.000000
0.340977 0.780257 1.000000
0.484090 0.777492 1.000000
0.629389 0.774686 1.000000
0.776453 0.771845 1.000000
0.925001 0.768976 1.000000
1.000000 0.766081 1.000000
0.000000 0.929358 1.000000
0.056602 0.926939 1.000000
0.192500 0.924314 1.000000
0.332726 0.921605 1.000000
0.475839 0.918841 1.000000
0.621138 0.916034 1.000000
0.768202 0.913193 1.000000
0.916750 0.910324 1.000000
1.000000 0.907430 1.000000
0.000000 1.000000 1.000000
0.048279 1.000000 1.000000
0.184178 1.000000 1.000000
0.324404 1.000000 1.000000
0.467517 1.000000 1.000000
0.612815 1.000000 1.000000
0.759879 1.000000 1.000000
0.908115 1.000000 1.000000
1.000000 1.000000 1.000000
