assets/Luts/street.cube
TITLE "OpenStreetRace street grade"
# Baked by scripts/bake-grade.py from the constants PresentToScreenFragmentShader once held.
# Edit this file, or replace it with one from a grading tool; nothing rebuilds it.
LUT_3D_SIZE 33
DOMAIN_MIN 0.0 0.0 0.0
DOMAIN_MAX 1.0 1.0 1.0
0.000000 0.000000 0.008402
0.021256 0.000000 0.007746
0.052519 0.000000 0.007034
0.084777 0.000000 0.006299
0.117700 0.000000 0.005549
0.151125 0.000000 0.004787
0.184957 0.000000 0.004016
0.219130 0.000000 0.003238
0.253598 0.000000 0.002453
0.288327 0.000000 0.001661
0.323288 0.000000 0.000865
0.358460 0.000000 0.000064
0.393825 0.000000 0.000000
0.429367 0.000000 0.000000
0.465074 0.000000 0.000000
0.500934 0.000000 0.000000
0.536938 0.000000 0.000000
0.573077 0.000000 0.000000
0.609344 0.000000 0.000000
0.645732 0.000000 0.000000
0.682236 0.000000 0.000000
0.718849 0.000000 0.000000
0.755567 0.000000 0.000000
0.792385 0.000000 0.000000
0.829300 0.000000 0.000000
0.866307 0.000000 0.000000
0.903403 0.000000 0.000000
0.940584 0.000000 0.000000
0.977849 0.000000 0.000000
1.000000 0.000000 0.000000
1.000000 0.000000 0.000000
1.000000 0.000000 0.000000
1.000000 0.000000 0.000000
0.000000 0.026579 0.006194
0.019655 0.026022 0.005538
0.050918 0.025418 0.004825
0.083177 0.024795 0.004090
0.116100 0.024159 0.003340
0.149525 0.023514 0.002579
0.183357 0.022860 0.001808
0.217530 0.022200 0.001030
0.251998 0.021534 0.000244
0.286727 0.020864 0.000000
0.321688 0.020188 0.000000
0.356860 0.019509 0.000000
0.392224 0.018826 0.000000
0.427766 0.018139 0.000000
0.463473 0.017449 0.000000
0.499333 0.016757 0.000000
0.535337 0.016061 0.000000
0.571477 0.015363 0.000000
0.607744 0.014663 0.000000
0.644132 0.013960 0.000000
0.680636 0.013255 0.000000
0.717249 0.012547 0.000000
0.753967 0.011838 0.000000
0.790785 0.011127 0.000000
0.827700 0.010414 0.000000
0.864707 0.009699 0.000000
0.901802 0.008983 0.000000
0.938984 0.008264 0.000000
0.976248 0.007544 0.000000
1.000000 0.006823 0.000000
1.000000 0.006100 0.000000
1.000000 0.005376 0.000000
1.000000 0.004650 0.000000
0.000000 0.056327 0.003798
0.017919 0.055770 0.003142
0.049182 0.055166 0.002429
0.081440 0.054543 0.001694
0.114363 0.053907 0.000944
0.147788 0.053261 0.000183
0.181620 0.052608 0.000000
0.215793 0.051948 0.000000
0.250262 0.051282 0.000000
0.284990 0.050611 0.000000
0.319951 0.049936 0.000000
0.355123 0.049257 0.000000
0.390488 0.048573 0.000000
0.426030 0.047887 0.000000
0.461737 0.047197 0.000000
0.497597 0.046504 0.000000
0.533601 0.045809 0.000000
0.569740 0.045111 0.000000
0.606007 0.044410 0.000000
0.642396 0.043707 0.000000
0.678899 0.043002 0.000000
0.715512 0.042295 0.000000
0.752230 0.041586 0.000000
0.789049 0.040875 0.000000
0.825963 0.040162 0.000000
0.862970 0.039447 0.000000
0.900066 0.038730 0.000000
0.937248 0.038012 0.000000
0.974512 0.037292 0.000000
1.000000 0.036571 0.000000
1.000000 0.035848 0.000000
1.000000 0.035124 0.000000
1.000000 0.034398 0.000000
0.000000 0.087022 0.001326
0.016127 0.086465 0.000669
0.047390 0.085861 0.000000
0.079649 0.085238 0.000000
0.112571 0.084602 0.000000
0.145997 0.083956 0.000000
0.179828 0.083303 0.000000
0.214002 0.082643 0.000000
0.248470 0.081977 0.000000
0.283198 0.081306 0.000000
0.318160 0.080631 0.000000
0.353332 0.079952 0.000000
0.388696 0.079268 0.000000
0.424238 0.078582 0.000000
0.459945 0.077892 0.000000
0.495805 0.077199 0.000000
0.531809 0.076504 0.000000
0.567948 0.075806 0.000000
0.604216 0.075105 0.000000
0.640604 0.074402 0.000000
0.677107 0.073697 0.000000
0.713721 0.072990 0.000000
0.750439 0.072281 0.000000
0.787257 0.071570 0.000000
0.824171 0.070857 0.000000
0.861178 0.070142 0.000000
0.898274 0.069425 0.000000
0.935456 0.068707 0.000000
0.972720 0.067987 0.000000
1.000000 0.067266 0.000000
1.000000 0.066543 0.000000
1.000000 0.065819 0.000000
1.000000 0.065093 0.000000
0.000000 0.118349 0.000000
0.014298 0.117792 0.000000
0.045561 0.117188 0.000000
0.077820 0.116565 0.000000
0.110743 0.115929 0.000000
0.144168 0.115283 0.000000
0.178000 0.114630 0.000000
0.212173 0.113970 0.000000
0.246641 0.113304 0.000000
0.281370 0.112633 0.000000
0.316331 0.111958 0.000000
0.351503 0.111278 0.000000
0.386868 0.110595 0.000000
0.422410 0.109909 0.000000
0.458116 0.109219 0.000000
0.493976 0.108526 0.000000
0.529980 0.107831 0.000000
0.566120 0.107133 0.000000
0.602387 0.106432 0.000000
0.638775 0.105729 0.000000
0.675279 0.105024 0.000000
0.711892 0.104317 0.000000
0.748610 0.103608 0.000000
0.785428 0.102897 0.000000
0.822343 0.102184 0.000000
0.859350 0.101469 0.000000
0.896446 0.100752 0.000000
0.933627 0.100034 0.000000
0.970891 0.099314 0.000000
1.000000 0.098593 0.000000
1.000000 0.097870 0.000000
1.000000 0.097146 0.000000
1.000000 0.096420 0.000000
0.000000 0.150154 0.000000
0.012442 0.149597 0.000000
0.043705 0.148993 0.000000
0.075963 0.148370 0.000000
0.108886 0.147734 0.000000
0.142312 0.147089 0.000000
0.176143 0.146435 0.000000
0.210316 0.145775 0.000000
0.244785 0.145109 0.000000
0.279513 0.144438 0.000000
0.314474 0.143763 0.000000
0.349646 0.143084 0.000000
0.385011 0.142401 0.000000
0.420553 0.141714 0.000000
0.456260 0.141024 0.000000
0.492120 0.140332 0.000000
0.528124 0.139636 0.000000
0.564263 0.138938 0.000000
0.600530 0.138238 0.000000
0.636919 0.137535 0.000000
0.673422 0.136830 0.000000
0.710035 0.136122 0.000000
0.746753 0.135413 0.000000
0.783572 0.134702 0.000000
0.820486 0.133989 0.000000
0.857493 0.133274 0.000000
0.894589 0.132557 0.000000
0.931771 0.131839 0.000000
0.969035 0.131119 0.000000
1.000000 0.130398 0.000000
1.000000 0.129675 0.000000
1.000000 0.128951 0.000000
1.000000 0.128225 0.000000
0.000000 0.182346 0.000000
0.010563 0.181789 0.000000
0.041826 0.181185 0.000000
0.074084 0.180562 0.000000
0.107007 0.179926 0.000000
0.140432 0.179280 0.000000
0.174264 0.178627 0.000000
0.208437 0.177967 0.000000
0.242906 0.177301 0.000000
0.277634 0.176630 0.000000
0.312595 0.175955 0.000000
0.347767 0.175275 0.000000
0.383132 0.174592 0.000000
0.418674 0.173906 0.000000
0.454381 0.173216 0.000000
0.490241 0.172523 0.000000
0.526245 0.171828 0.000000
0.562384 0.171130 0.000000
0.598651 0.170429 0.000000
0.635040 0.169726 0.000000
0.671543 0.169021 0.000000
0.708156 0.168314 0.000000
0.744874 0.167605 0.000000
0.781693 0.166894 0.000000
0.818607 0.166181 0.000000
0.855614 0.165466 0.000000
0.892710 0.164749 0.000000
0.929891 0.164031 0.000000
0.967156 0.163311 0.000000
1.000000 0.162590 0.000000
1.000000 0.161867 0.000000
1.000000 0.161143 0.000000
1.000000 0.160417 0.000000
0.000000 0.214862 0.000000
0.008665 0.214306 0.000000
0.039928 0.213702 0.000000
0.072186 0.213079 0.000000
0.105109 0.212443 0.000000
0.138534 0.211797 0.000000
0.172366 0.211144 0.000000
0.206539 0.210484 0.000000
0.241007 0.209818 0.000000
0.275736 0.209147 0.000000
0.310697 0.208472 0.000000
0.345869 0.207792 0.000000
0.381234 0.207109 0.000000
0.416776 0.206423 0.000000
0.452483 0.205733 0.000000
0.488343 0.205040 0.000000
0.524347 0.204345 0.000000
0.560486 0.203647 0.000000
0.596753 0.202946 0.000000
0.633141 0.202243 0.000000
0.669645 0.201538 0.000000
0.706258 0.200831 0.000000
0.742976 0.200122 0.000000
0.779794 0.199410 0.000000
0.816709 0.198697 0.000000
0.853716 0.197983 0.000000
0.890812 0.197266 0.000000
0.927993 0.196548 0.000000
0.965258 0.195828 0.000000
1.000000 0.195107 0.000000
1.000000 0.194384 0.000000
1.000000 0.193659 0.000000
1.000000 0.192934 0.000000
0.000000 0.247660 0.000000
0.006750 0.247103 0.000000
0.038013 0.246500 0.000000
0.070272 0.245876 0.000000
0.103194 0.245241 0.000000
0.136620 0.244595 0.000000
0.170451 0.243941 0.000000
0.204625 0.243281 0.000000
0.239093 0.242615 0.000000
0.273821 0.241945 0.000000
0.308783 0.241269 0.000000
0.343955 0.240590 0.000000
0.379319 0.239907 0.000000
0.414861 0.239220 0.000000
0.450568 0.238531 0.000000
0.486428 0.237838 0.000000
0.522432 0.237142 0.000000
0.558571 0.236444 0.000000
0.594839 0.235744 0.000000
0.631227 0.235041 0.000000
0.667730 0.234336 0.000000
0.704344 0.233629 0.000000
0.741062 0.232919 0.000000
0.777880 0.232208 0.000000
0.814794 0.231495 0.000000
0.851801 0.230780 0.000000
0.888897 0.230064 0.000000
0.926079 0.229345 0.000000
0.963343 0.228626 0.000000
1.000000 0.227904 0.000000
1.000000 0.227181 0.000000
1.000000 0.226457 0.000000
1.000000 0.225731 0.000000
0.000000 0.280705 0.000000
0.004821 0.280149 0.000000
0.036084 0.279545 0.000000
0.068343 0.278922 0.000000
0.101265 0.278286 0.000000
0.134691 0.277640 0.000000
0.168522 0.276987 0.000000
0.202696 0.276326 0.000000
0.237164 0.275661 0.000000
0.271892 0.274990 0.000000
0.306854 0.274314 0.000000
0.342026 0.273635 0.000000
0.377390 0.272952 0.000000
0.412932 0.272265 0.000000
0.448639 0.271576 0.000000
0.484499 0.270883 0.000000
0.520503 0.270188 0.000000
0.556643 0.269489 0.000000
0.592910 0.268789 0.000000
0.629298 0.268086 0.000000
0.665802 0.267381 0.000000
0.702415 0.266674 0.000000
0.739133 0.265964 0.000000
0.775951 0.265253 0.000000
0.812866 0.264540 0.000000
0.849872 0.263825 0.000000
0.886968 0.263109 0.000000
0.924150 0.262391 0.000000
0.961414 0.261671 0.000000
0.998759 0.260949 0.000000
1.000000 0.260227 0.000000
1.000000 0.259502 0.000000
1.000000 0.258777 0.000000
0.000000 0.313972 0.000000
0.002879 0.313415 0.000000
0.034142 0.312811 0.000000
0.066401 0.312188 0.000000
0.099324 0.311552 0.000000
0.132749 0.310907 0.000000
0.166581 0.310253 0.000000
0.200754 0.309593 0.000000
0.235222 0.308927 0.000000
0.269951 0.308256 0.000000
0.304912 0.307581 0.000000
0.340084 0.306902 0.000000
0.375448 0.306219 0.000000
0.410991 0.305532 0.000000
0.446697 0.304842 0.000000
0.482557 0.304150 0.000000
0.518561 0.303454 0.000000
0.554701 0.302756 0.000000
0.590968 0.302056 0.000000
0.627356 0.301353 0.000000
0.663860 0.300648 0.000000
0.700473 0.299940 0.000000
0.737191 0.299231 0.000000
0.774009 0.298520 0.000000
0.810924 0.297807 0.000000
0.847931 0.297092 0.000000
0.885026 0.296375 0.000000
0.922208 0.295657 0.000000
0.959472 0.294937 0.000000
0.996817 0.294216 0.000000
1.000000 0.293493 0.000000
1.000000 0.292769 0.000000
1.000000 0.292043 0.000000
0.000000 0.347439 0.000000
0.000926 0.346882 0.000000
0.032189 0.346279 0.000000
0.064447 0.345655 0.000000
0.097370 0.345020 0.000000
0.130795 0.344374 0.000000
0.164627 0.343720 0.000000
0.198800 0.343060 0.000000
0.233269 0.342394 0.000000
0.267997 0.341724 0.000000
0.302958 0.341048 0.000000
0.338130 0.340369 0.000000
0.373495 0.339686 0.000000
0.409037 0.338999 0.000000
0.444744 0.338310 0.000000
0.480604 0.337617 0.000000
0.516608 0.336921 0.000000
0.552747 0.336223 0.000000
0.589014 0.335523 0.000000
0.625403 0.334820 0.000000
0.661906 0.334115 0.000000
0.698519 0.333408 0.000000
0.735237 0.332698 0.000000
0.772056 0.331987 0.000000
0.808970 0.331274 0.000000
0.845977 0.330559 0.000000
0.883073 0.329843 0.000000
0.920254 0.329124 0.000000
0.957519 0.328405 0.000000
0.994863 0.327683 0.000000
1.000000 0.326960 0.000000
1.000000 0.326236 0.000000
1.000000 0.325510 0.000000
0.000000 0.381090 0.000000
0.000000 0.380533 0.000000
0.030224 0.379929 0.000000
0.062483 0.379306 0.000000
0.095406 0.378670 0.000000
0.128831 0.378024 0.000000
0.162663 0.377371 0.000000
0.196836 0.376711 0.000000
0.231304 0.376045 0.000000
0.266033 0.375374 0.000000
0.300994 0.374699 0.000000
0.336166 0.374019 0.000000
0.371531 0.373336 0.000000
0.407073 0.372650 0.000000
0.442779 0.371960 0.000000
0.478640 0.371267 0.000000
0.514643 0.370572 0.000000
0.550783 0.369874 0.000000
0.587050 0.369173 0.000000
0.623438 0.368470 0.000000
0.659942 0.367765 0.000000
0.696555 0.367058 0.000000
0.733273 0.366349 0.000000
0.770091 0.365638 0.000000
0.807006 0.364925 0.000000
0.844013 0.364210 0.000000
0.881109 0.363493 0.000000
0.918290 0.362775 0.000000
0.955555 0.362055 0.000000
0.992899 0.361334 0.000000
1.000000 0.360611 0.000000
1.000000 0.359887 0.000000
1.000000 0.359161 0.000000
0.000000 0.414909 0.000000
0.000000 0.414352 0.000000
0.028250 0.413748 0.000000
0.060509 0.413125 0.000000
0.093432 0.412489 0.000000
0.126857 0.411844 0.000000
0.160689 0.411190 0.000000
0.194862 0.410530 0.000000
0.229330 0.409864 0.000000
0.264059 0.409193 0.000000
0.299020 0.408518 0.000000
0.334192 0.407839 0.000000
0.369556 0.407156 0.000000
0.405099 0.406469 0.000000
0.440805 0.405779 0.000000
0.476665 0.405087 0.000000
0.512669 0.404391 0.000000
0.548809 0.403693 0.000000
0.585076 0.402993 0.000000
0.621464 0.402290 0.000000
0.657968 0.401585 0.000000
0.694581 0.400877 0.000000
0.731299 0.400168 0.000000
0.768117 0.399457 0.000000
0.805032 0.398744 0.000000
0.842039 0.398029 0.000000
0.879134 0.397312 0.000000
0.916316 0.396594 0.000000
0.953580 0.395874 0.000000
0.990925 0.395153 0.000000
1.000000 0.394430 0.000000
1.000000 0.393706 0.000000
1.000000 0.392980 0.000000
0.000000 0.448885 0.000000
0.000000 0.448328 0.000000
0.026267 0.447724 0.000000
0.058526 0.447101 0.000000
0.091448 0.446465 0.000000
0.124874 0.445820 0.000000
0.158705 0.445166 0.000000
0.192879 0.444506 0.000000
0.227347 0.443840 0.000000
0.262075 0.443169 0.000000
0.297037 0.442494 0.000000
0.332209 0.441815 0.000000
0.367573 0.441132 0.000000
0.403115 0.440445 0.000000
0.438822 0.439755 0.000000
0.474682 0.439063 0.000000
0.510686 0.438367 0.000000
0.546825 0.437669 0.000000
0.583093 0.436969 0.000000
0.619481 0.436266 0.000000
0.655984 0.435561 0.000000
0.692598 0.434853 0.000000
0.729316 0.434144 0.000000
0.766134 0.433433 0.000000
0.803048 0.432720 0.000000
0.840055 0.432005 0.000000
0.877151 0.431288 0.000000
0.914333 0.430570 0.000000
0.951597 0.429850 0.000000
0.988941 0.429129 0.000000
1.000000 0.428406 0.000000
1.000000 0.427682 0.000000
1.000000 0.426956 0.000000
0.000000 0.483007 0.000000
0.000000 0.482450 0.000000
0.024275 0.481846 0.000000
0.056534 0.481223 0.000000
0.089457 0.480587 0.000000
0.122882 0.479942 0.000000
0.156714 0.479288 0.000000
0.190887 0.478628 0.000000
0.225355 0.477962 0.000000
0.260084 0.477291 0.000000
0.295045 0.476616 0.000000
0.330217 0.475937 0.000000
0.365581 0.475254 0.000000
0.401124 0.474567 0.000000
0.436830 0.473877 0.000000
0.472690 0.473185 0.000000
0.508694 0.472489 0.000000
0.544834 0.471791 0.000000
0.581101 0.471091 0.000000
0.617489 0.470388 0.000000
0.653993 0.469683 0.000000
0.690606 0.468975 0.000000
0.727324 0.468266 0.000000
0.764142 0.467555 0.000000
0.801057 0.466842 0.000000
0.838064 0.466127 0.000000
0.875159 0.465410 0.000000
0.912341 0.464692 0.000000
0.949605 0.463972 0.000000
0.986950 0.463251 0.000000
1.000000 0.462528 0.000000
1.000000 0.461804 0.000000
1.000000 0.461078 0.000000
0.000000 0.517266 0.000000
0.000000 0.516709 0.000000
0.022275 0.516105 0.000000
0.054534 0.515482 0.000000
0.087457 0.514846 0.000000
0.120882 0.514200 0.000000
0.154714 0.513547 0.000000
0.188887 0.512887 0.000000
0.223355 0.512221 0.000000
0.258084 0.511550 0.000000
0.293045 0.510875 0.000000
0.328217 0.510196 0.000000
0.363582 0.509512 0.000000
0.399124 0.508826 0.000000
0.434830 0.508136 0.000000
0.470691 0.507443 0.000000
0.506695 0.506748 0.000000
0.542834 0.506050 0.000000
0.579101 0.505349 0.000000
0.615489 0.504646 0.000000
0.651993 0.503941 0.000000
0.688606 0.503234 0.000000
0.725324 0.502525 0.000000
0.762142 0.501814 0.000000
0.799057 0.501101 0.000000
0.836064 0.500386 0.000000
0.873160 0.499669 0.000000
0.910341 0.498951 0.000000
0.947606 0.498231 0.000000
0.984950 0.497510 0.000000
1.000000 0.496787 0.000000
1.000000 0.496063 0.000000
1.000000 0.495337 0.000000
0.000000 0.551653 0.000000
0.000000 0.551097 0.000000
0.020268 0.550493 0.000000
0.052527 0.549870 0.000000
0.085449 0.549234 0.000000
0.118875 0.548588 0.000000
0.152706 0.547935 0.000000
0.186880 0.547275 0.000000
0.221348 0.546609 0.000000
0.256076 0.545938 0.000000
0.291038 0.545263 0.000000
0.326210 0.544583 0.000000
0.361574 0.543900 0.000000
0.397116 0.543214 0.000000
0.432823 0.542524 0.000000
0.468683 0.541831 0.000000
0.504687 0.541136 0.000000
0.540827 0.540438 0.000000
0.577094 0.539737 0.000000
0.613482 0.539034 0.000000
0.649986 0.538329 0.000000
0.686599 0.537622 0.000000
0.723317 0.536913 0.000000
0.760135 0.536201 0.000000
0.797050 0.535488 0.000000
0.834056 0.534773 0.000000
0.871152 0.534057 0.000000
0.908334 0.533339 0.000000
0.945598 0.532619 0.000000
0.982943 0.531898 0.000000
1.000000 0.531175 0.000000
1.000000 0.530450 0.000000
1.000000 0.529725 0.000000
0.000000 0.586163 0.000000
0.000000 0.585606 0.000000
0.018254 0.585002 0.000000
0.050512 0.584379 0.000000
0.083435 0.583743 0.000000
0.116860 0.583097 0.000000
0.150692 0.582444 0.000000
0.184865 0.581784 0.000000
0.219334 0.581118 0.000000
0.254062 0.580447 0.000000
0.289023 0.579772 0.000000
0.324195 0.579092 0.000000
0.359560 0.578409 0.000000
0.395102 0.577723 0.000000
0.430809 0.577033 0.000000
0.466669 0.576340 0.000000
0.502673 0.575645 0.000000
0.538812 0.574947 0.000000
0.575079 0.574246 0.000000
0.611468 0.573543 0.000000
0.647971 0.572838 0.000000
0.684584 0.572131 0.000000
0.721302 0.571422 0.000000
0.758121 0.570711 0.000000
0.795035 0.569998 0.000000
0.832042 0.569283 0.000000
0.869138 0.568566 0.000000
0.906320 0.567848 0.000000
0.943584 0.567128 0.000000
0.980928 0.566407 0.000000
1.000000 0.565684 0.000000
1.000000 0.564960 0.000000
1.000000 0.564234 0.000000
0.000000 0.620787 0.000000
0.000000 0.620231 0.000000
0.016233 0.619627 0.000000
0.048491 0.619004 0.000000
0.081414 0.618368 0.000000
0.114839 0.617722 0.000000
0.148671 0.617068 0.000000
0.182844 0.616408 0.000000
0.217312 0.615743 0.000000
0.252041 0.615072 0.000000
0.287002 0.614396 0.000000
0.322174 0.613717 0.000000
0.357539 0.613034 0.000000
0.393081 0.612347 0.000000
0.428788 0.611658 0.000000
0.464648 0.610965 0.000000
0.500652 0.610269 0.000000
0.536791 0.609571 0.000000
0.573058 0.608871 0.000000
0.609447 0.608168 0.000000
0.645950 0.607463 0.000000
0.682563 0.606756 0.000000
0.719281 0.606046 0.000000
0.756099 0.605335 0.000000
0.793014 0.604622 0.000000
0.830021 0.603907 0.000000
0.867117 0.603191 0.000000
0.904298 0.602473 0.000000
0.941563 0.601753 0.000000
0.978907 0.601031 0.000000
1.000000 0.600309 0.000000
1.000000 0.599584 0.000000
1.000000 0.598859 0.000000
0.000000 0.655521 0.000000
0.000000 0.654965 0.000000
0.014205 0.654361 0.000000
0.046464 0.653738 0.000000
0.079386 0.653102 0.000000
0.112812 0.652456 0.000000
0.146643 0.651803 0.000000
0.180817 0.651143 0.000000
0.215285 0.650477 0.000000
0.250013 0.649806 0.000000
0.284975 0.649131 0.000000
0.320147 0.648451 0.000000
0.355511 0.647768 0.000000
0.391053 0.647082 0.000000
0.426760 0.646392 0.000000
0.462620 0.645699 0.000000
0.498624 0.645004 0.000000
0.534763 0.644306 0.000000
0.571031 0.643605 0.000000
0.607419 0.642902 0.000000
0.643922 0.642197 0.000000
0.680536 0.641490 0.000000
0.717254 0.640781 0.000000
0.754072 0.640069 0.000000
0.790986 0.639356 0.000000
0.827993 0.638641 0.000000
0.865089 0.637925 0.000000
0.902271 0.637207 0.000000
0.939535 0.636487 0.000000
0.976879 0.635765 0.000000
1.000000 0.635043 0.000000
1.000000 0.634318 0.000000
1.000000 0.633593 0.000000
0.000000 0.690360 0.000000
0.000000 0.689803 0.000000
0.012171 0.689199 0.000000
0.044430 0.688576 0.000000
0.077353 0.687940 0.000000
0.110778 0.687295 0.000000
0.144610 0.686641 0.000000
0.178783 0.685981 0.000000
0.213251 0.685315 0.000000
0.247980 0.684644 0.000000
0.282941 0.683969 0.000000
0.318113 0.683290 0.000000
0.353478 0.682607 0.000000
0.389020 0.681920 0.000000
0.424726 0.681230 0.000000
0.460587 0.680538 0.000000
0.496591 0.679842 0.000000
0.532730 0.679144 0.000000
0.568997 0.678444 0.000000
0.605385 0.677741 0.000000
0.641889 0.677036 0.000000
0.678502 0.676328 0.000000
0.715220 0.675619 0.000000
0.752038 0.674908 0.000000
0.788953 0.674195 0.000000
0.825960 0.673480 0.000000
0.863056 0.672763 0.000000
0.900237 0.672045 0.000000
0.937502 0.671325 0.000000
0.974846 0.670604 0.000000
1.000000 0.669881 0.000000
1.000000 0.669157 0.000000
1.000000 0.668431 0.000000
0.000000 0.725298 0.000000
0.000000 0.724741 0.000000
0.010132 0.724138 0.000000
0.042391 0.723514 0.000000
0.075313 0.722879 0.000000
0.108739 0.722233 0.000000
0.142570 0.721579 0.000000
0.176744 0.720919 0.000000
0.211212 0.720253 0.000000
0.245940 0.719583 0.000000
0.280902 0.718907 0.000000
0.316074 0.718228 0.000000
0.351438 0.717545 0.000000
0.386980 0.716858 0.000000
0.422687 0.716169 0.000000
0.458547 0.715476 0.000000
0.494551 0.714780 0.000000
0.530690 0.714082 0.000000
0.566958 0.713382 0.000000
0.603346 0.712679 0.000000
0.639849 0.711974 0.000000
0.676463 0.711267 0.000000
0.713181 0.710557 0.000000
0.749999 0.709846 0.000000
0.786913 0.709133 0.000000
0.823920 0.708418 0.000000
0.861016 0.707702 0.000000
0.898198 0.706983 0.000000
0.935462 0.706264 0.000000
0.972806 0.705542 0.000000
1.000000 0.704819 0.000000
1.000000 0.704095 0.000000
1.000000 0.703369 0.000000
0.000000 0.760332 0.000000
0.000000 0.759775 0.000000
0.008087 0.759171 0.000000
0.040346 0.758548 0.000000
0.073268 0.757912 0.000000
0.106694 0.757267 0.000000
0.140525 0.756613 0.000000
0.174699 0.755953 0.000000
0.209167 0.755287 0.000000
0.243895 0.754616 0.000000
0.278857 0.753941 0.000000
0.314029 0.753262 0.000000
0.349393 0.752579 0.000000
0.384935 0.751892 0.000000
0.420642 0.751202 0.000000
0.456502 0.750510 0.000000
0.492506 0.749814 0.000000
0.528645 0.749116 0.000000
0.564913 0.748415 0.000000
0.601301 0.747713 0.000000
0.637804 0.747007 0.000000
0.674418 0.746300 0.000000
0.711136 0.745591 0.000000
0.747954 0.744880 0.000000
0.784868 0.744167 0.000000
0.821875 0.743452 0.000000
0.858971 0.742735 0.000000
0.896153 0.742017 0.000000
0.933417 0.741297 0.000000
0.970761 0.740576 0.000000
1.000000 0.739853 0.000000
1.000000 0.739129 0.000000
1.000000 0.738403 0.000000
0.000000 0.795457 0.000000
0.000000 0.794900 0.000000
0.006037 0.794297 0.000000
0.038295 0.793673 0.000000
0.071218 0.793037 0.000000
0.104643 0.792392 0.000000
0.138475 0.791738 0.000000
0.172648 0.791078 0.000000
0.207116 0.790412 0.000000
0.241845 0.789742 0.000000
0.276806 0.789066 0.000000
0.311978 0.788387 0.000000
0.347343 0.787704 0.000000
0.382885 0.787017 0.000000
0.418592 0.786328 0.000000
0.454452 0.785635 0.000000
0.490456 0.784939 0.000000
0.526595 0.784241 0.000000
0.562862 0.783541 0.000000
0.599251 0.782838 0.000000
0.635754 0.782133 0.000000
0.672367 0.781425 0.000000
0.709085 0.780716 0.000000
0.745903 0.780005 0.000000
0.782818 0.779292 0.000000
0.819825 0.778577 0.000000
0.856921 0.777861 0.000000
0.894102 0.777142 0.000000
0.931367 0.776423 0.000000
0.968711 0.775701 0.000000
1.000000 0.774978 0.000000
1.000000 0.774254 0.000000
1.000000 0.773528 0.000000
0.000000 0.830670 0.000000
0.000000 0.830114 0.000000
0.003981 0.829510 0.000000
0.036240 0.828887 0.000000
0.069162 0.828251 0.000000
0.102588 0.827605 0.000000
0.136419 0.826952 0.000000
0.170593 0.826291 0.000000
0.205061 0.825626 0.000000
0.239789 0.824955 0.000000
0.274751 0.824279 0.000000
0.309923 0.823600 0.000000
0.345287 0.822917 0.000000
0.380829 0.822230 0.000000
0.416536 0.821541 0.000000
0.452396 0.820848 0.000000
0.488400 0.820153 0.000000
0.524540 0.819454 0.000000
0.560807 0.818754 0.000000
0.597195 0.818051 0.000000
0.633699 0.817346 0.000000
0.670312 0.816639 0.000000
0.707030 0.815929 0.000000
0.743848 0.815218 0.000000
0.780763 0.814505 0.000000
0.817769 0.813790 0.000000
0.854865 0.813074 0.000000
0.892047 0.812356 0.000000
0.929311 0.811636 0.000000
0.966656 0.810914 0.000000
1.000000 0.810192 0.000000
1.000000 0.809467 0.000000
1.000000 0.808742 0.000000
0.000000 0.865968 0.000000
0.000000 0.865411 0.000000
0.001921 0.864808 0.000000
0.034179 0.864184 0.000000
0.067102 0.863548 0.000000
0.100527 0.862903 0.000000
0.134359 0.862249 0.000000
0.168532 0.861589 0.000000
0.203001 0.860923 0.000000
0.237729 0.860253 0.000000
0.272690 0.859577 0.000000
0.307862 0.858898 0.000000
0.343227 0.858215 0.000000
0.378769 0.857528 0.000000
0.414476 0.856839 0.000000
0.450336 0.856146 0.000000
0.486340 0.855450 0.000000
0.522479 0.854752 0.000000
0.558746 0.854052 0.000000
0.595135 0.853349 0.000000
